;FLAVOR:Marlin
;TIME:24629
;Filament used: 21.3326m
;Layer height: 0.2
;MINX:11.535
;MINY:16.211
;MINZ:0.1
;MAXX:128.794
;MAXY:163.668
;MAXZ:28
;TARGET_MACHINE.NAME:Anycubic Kobra
;Generated with Cura_SteamEngine 5.7.1
M140 S60
M105
M190 S60
M104 S200
M105
M109 S200
M82 ;absolute extrusion mode
G28 ;Home
G1 Z15.0 F1200 ;Move the platform down 15mm
;Prime the extruder
G92 E0
G1 F200 E3
G92 E0
G92 E0
G92 E0
G1 F2400 E-6
;LAYER_COUNT:140
;LAYER:0
M107
M204 S2000
M205 X10 Y10
G0 F3000 X12.92 Y16.791 Z0.2
M204 S1000
M205 X8 Y8
;TYPE:SKIRT
G1 F2400 E0
G1 X13.357 Y16.537 E0.01681
G1 X13.828 Y16.354 E0.03362
G1 X14.323 Y16.248 E0.05045
G1 X14.975 Y16.212 E0.07217
G1 X124.933 Y16.211 E3.72939
G1 X125.631 Y16.221 E3.75261
G1 X126.134 Y16.268 E3.76941
G1 X126.624 Y16.394 E3.78624
G1 X127.088 Y16.596 E3.80307
G1 X127.514 Y16.868 E3.81988
G1 X127.892 Y17.203 E3.83668
G1 X128.212 Y17.594 E3.85349
G1 X128.467 Y18.031 E3.87031
G1 X128.65 Y18.502 E3.88712
G1 X128.757 Y18.996 E3.90393
G1 X128.793 Y19.651 E3.92575
G1 X128.794 Y159.771 E8.58616
G1 X128.785 Y160.498 E8.61034
G1 X128.739 Y161.001 E8.62714
G1 X128.614 Y161.491 E8.64396
G1 X128.413 Y161.955 E8.66078
G1 X128.142 Y162.382 E8.6776
G1 X127.807 Y162.761 E8.69443
G1 X127.417 Y163.082 E8.71123
G1 X126.981 Y163.338 E8.72804
G1 X126.51 Y163.521 E8.74485
G1 X126.016 Y163.629 E8.76167
G1 X125.376 Y163.666 E8.78299
G1 X15.397 Y163.668 E12.44091
G1 X14.698 Y163.658 E12.46416
G1 X14.195 Y163.611 E12.48096
G1 X13.705 Y163.485 E12.49779
G1 X13.241 Y163.283 E12.51462
G1 X12.815 Y163.011 E12.53143
G1 X12.437 Y162.676 E12.54823
G1 X12.117 Y162.285 E12.56503
G1 X11.862 Y161.848 E12.58186
G1 X11.679 Y161.377 E12.59867
G1 X11.572 Y160.883 E12.61548
G1 X11.536 Y160.223 E12.63746
G1 X11.535 Y20.037 E17.30007
G1 X11.545 Y19.372 E17.32219
G1 X11.593 Y18.869 E17.339
G1 X11.719 Y18.379 E17.35582
G1 X11.921 Y17.915 E17.37265
G1 X12.193 Y17.489 E17.38947
G1 X12.529 Y17.112 E17.40626
G1 X12.92 Y16.791 E17.42309
M204 S2000
M205 X10 Y10
G1 F2400 E11.42309
G0 F3000 X14.935 Y19.611
M204 S1000
M205 X8 Y8
G1 F2400 E17.42309
G1 X125.394 Y19.611 E21.09697
G1 X125.394 Y160.267 E25.77521
G1 X14.935 Y160.268 E29.44909
G1 X14.935 Y19.611 E34.12736
M204 S2000
M205 X10 Y10
G0 F3000 X15.335 Y20.011
M204 S1000
M205 X8 Y8
G1 F2400 X124.994 Y20.011 E37.77463
G1 X124.994 Y23.572 E37.89307
G1 X124.794 Y23.524 E37.89991
G1 X15.535 Y23.524 E41.53388
G1 X15.335 Y23.561 E41.54065
G1 X15.335 Y20.011 E41.65872
M204 S2000
M205 X10 Y10
G0 F3000 X15.735 Y20.411
M204 S1000
M205 X8 Y8
G1 F2400 X124.594 Y20.411 E45.27938
G1 X124.594 Y23.124 E45.36962
G1 X15.735 Y23.124 E48.99028
G1 X15.735 Y20.411 E49.08052
M204 S2000
M205 X10 Y10
G1 F2400 E43.08052
G0 F3000 X15.535 Y23.924
M204 S1000
M205 X8 Y8
G1 F2400 E49.08052
G1 X15.416 Y23.963 E49.08468
G1 X15.335 Y24.124 E49.09068
G1 X15.335 Y157.768 E53.5357
G1 X15.374 Y157.887 E53.53986
G1 X15.535 Y157.968 E53.54586
G1 X124.794 Y157.968 E57.17982
G1 X124.913 Y157.929 E57.18399
G1 X124.994 Y157.768 E57.18998
G1 X124.994 Y24.124 E61.635
G1 X124.955 Y24.005 E61.63917
G1 X124.794 Y23.924 E61.64516
G1 X15.535 Y23.924 E65.27913
M204 S2000
M205 X10 Y10
G1 F2400 E59.27913
G0 F3000 X15.335 Y158.32
M204 S1000
M205 X8 Y8
G1 F2400 E65.27913
G1 X15.535 Y158.368 E65.28597
G1 X124.794 Y158.368 E68.91994
G1 X124.994 Y158.331 E68.9267
G1 X124.994 Y159.867 E68.97779
G1 X15.335 Y159.868 E72.62507
G1 X15.335 Y158.32 E72.67655
M204 S2000
M205 X10 Y10
G0 F3000 X15.735 Y158.768
M204 S1000
M205 X8 Y8
G1 F2400 X124.594 Y158.768 E76.29722
G1 X124.594 Y159.467 E76.32047
G1 X15.735 Y159.468 E79.94113
G1 X15.735 Y158.768 E79.96441
M204 S2000
M205 X10 Y10
G1 F2400 E73.96441
G0 F3000 X15.735 Y158.768 Z0.1
G0 X15.582 Y157.721
G0 X15.582 Y24.171
G0 X16.002 Y22.924
M204 S1000
M205 X8 Y8
;TYPE:SUPPORT
G1 F2400 E79.96441
G1 F1500 X16.002 Y20.611 E80.04134
M204 S2000
M205 X10 Y10
G0 F3000 X15.935 Y21.336
M204 S1000
M205 X8 Y8
G1 F1500 X124.394 Y21.336 E83.64871
M204 S2000
M205 X10 Y10
G1 F2400 E77.64871
G0 F3000 X122.682 Y20.611
M204 S1000
M205 X8 Y8
G1 F2400 E83.64871
G1 F1500 X122.682 Y22.924 E83.72564
M204 S2000
M205 X10 Y10
G1 F2400 E77.72564
G0 F3000 X120.015 Y22.924
M204 S1000
M205 X8 Y8
G1 F2400 E83.72564
G1 F1500 X120.015 Y20.611 E83.80257
M204 S2000
M205 X10 Y10
G1 F2400 E77.80257
G0 F3000 X117.348 Y20.611
M204 S1000
M205 X8 Y8
G1 F2400 E83.80257
G1 F1500 X117.348 Y22.924 E83.8795
M204 S2000
M205 X10 Y10
G1 F2400 E77.8795
G0 F3000 X114.681 Y22.924
M204 S1000
M205 X8 Y8
G1 F2400 E83.8795
G1 F1500 X114.681 Y20.611 E83.95643
M204 S2000
M205 X10 Y10
G1 F2400 E77.95643
G0 F3000 X112.014 Y20.611
M204 S1000
M205 X8 Y8
G1 F2400 E83.95643
G1 F1500 X112.014 Y22.924 E84.03336
M204 S2000
M205 X10 Y10
G1 F2400 E78.03336
G0 F3000 X109.347 Y22.924
M204 S1000
M205 X8 Y8
G1 F2400 E84.03336
G1 F1500 X109.347 Y20.611 E84.11029
M204 S2000
M205 X10 Y10
G1 F2400 E78.11029
G0 F3000 X106.68 Y20.611
M204 S1000
M205 X8 Y8
G1 F2400 E84.11029
G1 F1500 X106.68 Y22.924 E84.18722
M204 S2000
M205 X10 Y10
G1 F2400 E78.18722
G0 F3000 X104.013 Y22.924
M204 S1000
M205 X8 Y8
G1 F2400 E84.18722
G1 F1500 X104.013 Y20.611 E84.26415
M204 S2000
M205 X10 Y10
G1 F2400 E78.26415
G0 F3000 X101.346 Y20.611
M204 S1000
M205 X8 Y8
G1 F2400 E84.26415
G1 F1500 X101.346 Y22.924 E84.34108
M204 S2000
M205 X10 Y10
G1 F2400 E78.34108
G0 F3000 X98.679 Y22.924
M204 S1000
M205 X8 Y8
G1 F2400 E84.34108
G1 F1500 X98.679 Y20.611 E84.41801
M204 S2000
M205 X10 Y10
G1 F2400 E78.41801
G0 F3000 X96.012 Y20.611
M204 S1000
M205 X8 Y8
G1 F2400 E84.41801
G1 F1500 X96.012 Y22.924 E84.49494
M204 S2000
M205 X10 Y10
G1 F2400 E78.49494
G0 F3000 X93.345 Y22.924
M204 S1000
M205 X8 Y8
G1 F2400 E84.49494
G1 F1500 X93.345 Y20.611 E84.57187
M204 S2000
M205 X10 Y10
G1 F2400 E78.57187
G0 F3000 X90.678 Y20.611
M204 S1000
M205 X8 Y8
G1 F2400 E84.57187
G1 F1500 X90.678 Y22.924 E84.6488
M204 S2000
M205 X10 Y10
G1 F2400 E78.6488
G0 F3000 X88.011 Y22.924
M204 S1000
M205 X8 Y8
G1 F2400 E84.6488
G1 F1500 X88.011 Y20.611 E84.72573
M204 S2000
M205 X10 Y10
G1 F2400 E78.72573
G0 F3000 X85.344 Y20.611
M204 S1000
M205 X8 Y8
G1 F2400 E84.72573
G1 F1500 X85.344 Y22.924 E84.80267
M204 S2000
M205 X10 Y10
G1 F2400 E78.80267
G0 F3000 X82.677 Y22.924
M204 S1000
M205 X8 Y8
G1 F2400 E84.80267
G1 F1500 X82.677 Y20.611 E84.8796
M204 S2000
M205 X10 Y10
G1 F2400 E78.8796
G0 F3000 X80.01 Y20.611
M204 S1000
M205 X8 Y8
G1 F2400 E84.8796
G1 F1500 X80.01 Y22.924 E84.95653
M204 S2000
M205 X10 Y10
G1 F2400 E78.95653
G0 F3000 X77.343 Y22.924
M204 S1000
M205 X8 Y8
G1 F2400 E84.95653
G1 F1500 X77.343 Y20.611 E85.03346
M204 S2000
M205 X10 Y10
G1 F2400 E79.03346
G0 F3000 X74.676 Y20.611
M204 S1000
M205 X8 Y8
G1 F2400 E85.03346
G1 F1500 X74.676 Y22.924 E85.11039
M204 S2000
M205 X10 Y10
G1 F2400 E79.11039
G0 F3000 X72.009 Y22.924
M204 S1000
M205 X8 Y8
G1 F2400 E85.11039
G1 F1500 X72.009 Y20.611 E85.18732
M204 S2000
M205 X10 Y10
G1 F2400 E79.18732
G0 F3000 X69.342 Y20.611
M204 S1000
M205 X8 Y8
G1 F2400 E85.18732
G1 F1500 X69.342 Y22.924 E85.26425
M204 S2000
M205 X10 Y10
G1 F2400 E79.26425
G0 F3000 X66.675 Y22.924
M204 S1000
M205 X8 Y8
G1 F2400 E85.26425
G1 F1500 X66.675 Y20.611 E85.34118
M204 S2000
M205 X10 Y10
G1 F2400 E79.34118
G0 F3000 X64.008 Y20.611
M204 S1000
M205 X8 Y8
G1 F2400 E85.34118
G1 F1500 X64.008 Y22.924 E85.41811
M204 S2000
M205 X10 Y10
G1 F2400 E79.41811
G0 F3000 X61.341 Y22.924
M204 S1000
M205 X8 Y8
G1 F2400 E85.41811
G1 F1500 X61.341 Y20.611 E85.49504
M204 S2000
M205 X10 Y10
G1 F2400 E79.49504
G0 F3000 X58.674 Y20.611
M204 S1000
M205 X8 Y8
G1 F2400 E85.49504
G1 F1500 X58.674 Y22.924 E85.57197
M204 S2000
M205 X10 Y10
G1 F2400 E79.57197
G0 F3000 X56.007 Y22.924
M204 S1000
M205 X8 Y8
G1 F2400 E85.57197
G1 F1500 X56.007 Y20.611 E85.6489
M204 S2000
M205 X10 Y10
G1 F2400 E79.6489
G0 F3000 X53.34 Y20.611
M204 S1000
M205 X8 Y8
G1 F2400 E85.6489
G1 F1500 X53.34 Y22.924 E85.72583
M204 S2000
M205 X10 Y10
G1 F2400 E79.72583
G0 F3000 X50.673 Y22.924
M204 S1000
M205 X8 Y8
G1 F2400 E85.72583
G1 F1500 X50.673 Y20.611 E85.80276
M204 S2000
M205 X10 Y10
G1 F2400 E79.80276
G0 F3000 X48.006 Y20.611
M204 S1000
M205 X8 Y8
G1 F2400 E85.80276
G1 F1500 X48.006 Y22.924 E85.8797
M204 S2000
M205 X10 Y10
G1 F2400 E79.8797
G0 F3000 X45.339 Y22.924
M204 S1000
M205 X8 Y8
G1 F2400 E85.8797
G1 F1500 X45.339 Y20.611 E85.95663
M204 S2000
M205 X10 Y10
G1 F2400 E79.95663
G0 F3000 X42.672 Y20.611
M204 S1000
M205 X8 Y8
G1 F2400 E85.95663
G1 F1500 X42.672 Y22.924 E86.03356
M204 S2000
M205 X10 Y10
G1 F2400 E80.03356
G0 F3000 X40.005 Y22.924
M204 S1000
M205 X8 Y8
G1 F2400 E86.03356
G1 F1500 X40.005 Y20.611 E86.11049
M204 S2000
M205 X10 Y10
G1 F2400 E80.11049
G0 F3000 X37.338 Y20.611
M204 S1000
M205 X8 Y8
G1 F2400 E86.11049
G1 F1500 X37.338 Y22.924 E86.18742
M204 S2000
M205 X10 Y10
G1 F2400 E80.18742
G0 F3000 X34.671 Y22.924
M204 S1000
M205 X8 Y8
G1 F2400 E86.18742
G1 F1500 X34.671 Y20.611 E86.26435
M204 S2000
M205 X10 Y10
G1 F2400 E80.26435
G0 F3000 X32.004 Y20.611
M204 S1000
M205 X8 Y8
G1 F2400 E86.26435
G1 F1500 X32.004 Y22.924 E86.34128
M204 S2000
M205 X10 Y10
G1 F2400 E80.34128
G0 F3000 X29.337 Y22.924
M204 S1000
M205 X8 Y8
G1 F2400 E86.34128
G1 F1500 X29.337 Y20.611 E86.41821
M204 S2000
M205 X10 Y10
G1 F2400 E80.41821
G0 F3000 X26.67 Y20.611
M204 S1000
M205 X8 Y8
G1 F2400 E86.41821
G1 F1500 X26.67 Y22.924 E86.49514
M204 S2000
M205 X10 Y10
G1 F2400 E80.49514
G0 F3000 X24.003 Y22.924
M204 S1000
M205 X8 Y8
G1 F2400 E86.49514
G1 F1500 X24.003 Y20.611 E86.57207
M204 S2000
M205 X10 Y10
G1 F2400 E80.57207
G0 F3000 X21.336 Y20.611
M204 S1000
M205 X8 Y8
G1 F2400 E86.57207
G1 F1500 X21.336 Y22.924 E86.649
M204 S2000
M205 X10 Y10
G1 F2400 E80.649
G0 F3000 X18.669 Y22.924
M204 S1000
M205 X8 Y8
G1 F2400 E86.649
G1 F1500 X18.669 Y20.611 E86.72593
M204 S2000
M205 X10 Y10
G1 F2400 E80.72593
G0 F3000 X18.669 Y20.611 Z0.2
G0 X15.582 Y24.171
G0 X15.582 Y157.721
G0 X16.082 Y159.118
M204 S1000
M205 X8 Y8
G1 F2400 E86.72593
G1 F1764.7 X124.244 Y159.116 E89.78379
M204 S2000
M205 X10 Y10
G1 F2400 E83.78379
;MESH:2_Case_Bottom.stl
G0 F3000 X123.68 Y156.654
G0 X123.892 Y156.868
M204 S1000
M205 X8 Y8
;TYPE:WALL-OUTER
G1 F2400 E89.78379
G1 F1500 X123.892 Y25.024 E94.16894
G1 X16.432 Y25.024 E97.74308
G1 X16.432 Y156.868 E102.12823
G1 X123.892 Y156.868 E105.70236
M204 S2000
M205 X10 Y10
G0 F3000 X123.892 Y156.668
G0 X123.492 Y156.468
M204 S1000
M205 X8 Y8
;TYPE:WALL-INNER
G1 F1500 X123.492 Y25.424 E110.0609
G1 X16.832 Y25.424 E113.60843
G1 X16.832 Y156.468 E117.96697
G1 X123.492 Y156.468 E121.51449
M204 S2000
M205 X10 Y10
G0 F3000 X123.092 Y156.068
M204 S1000
M205 X8 Y8
G1 F1500 X123.092 Y25.824 E125.84643
G1 X17.232 Y25.824 E129.36734
G1 X17.232 Y156.068 E133.69928
G1 X123.092 Y156.068 E137.2202
M204 S2000
M205 X10 Y10
G0 F3000 X122.712 Y155.688
M204 S1000
M205 X8 Y8
;TYPE:SKIN
G1 F1500 X122.712 Y26.204 E141.52685
G1 X17.612 Y26.204 E145.02249
G1 X17.612 Y155.688 E149.32915
G1 X122.712 Y155.688 E152.82479
M204 S2000
M205 X10 Y10
G0 F3000 X17.812 Y155.274
M204 S1000
M205 X8 Y8
G1 F1500 X18.027 Y155.489 E152.8349
M204 S2000
M205 X10 Y10
G0 F3000 X18.593 Y155.489
M204 S1000
M205 X8 Y8
G1 F1500 X17.812 Y154.708 E152.87164
M204 S2000
M205 X10 Y10
G0 F3000 X17.812 Y154.142
M204 S1000
M205 X8 Y8
G1 F1500 X19.158 Y155.489 E152.93497
M204 S2000
M205 X10 Y10
G0 F3000 X19.724 Y155.489
M204 S1000
M205 X8 Y8
G1 F1500 X17.812 Y153.577 E153.02491
M204 S2000
M205 X10 Y10
G0 F3000 X17.812 Y153.011
M204 S1000
M205 X8 Y8
G1 F1500 X20.29 Y155.489 E153.14146
M204 S2000
M205 X10 Y10
G0 F3000 X20.855 Y155.489
M204 S1000
M205 X8 Y8
G1 F1500 X17.812 Y152.445 E153.28462
M204 S2000
M205 X10 Y10
G0 F3000 X17.812 Y151.879
M204 S1000
M205 X8 Y8
G1 F1500 X21.421 Y155.489 E153.4544
M204 S2000
M205 X10 Y10
G0 F3000 X21.987 Y155.489
M204 S1000
M205 X8 Y8
G1 F1500 X17.812 Y151.314 E153.65078
M204 S2000
M205 X10 Y10
G0 F3000 X17.812 Y150.748
M204 S1000
M205 X8 Y8
G1 F1500 X22.552 Y155.489 E153.87376
M204 S2000
M205 X10 Y10
G0 F3000 X23.118 Y155.489
M204 S1000
M205 X8 Y8
G1 F1500 X17.812 Y150.182 E154.12336
M204 S2000
M205 X10 Y10
G0 F3000 X17.812 Y149.617
M204 S1000
M205 X8 Y8
G1 F1500 X23.684 Y155.489 E154.39956
M204 S2000
M205 X10 Y10
G0 F3000 X24.25 Y155.489
M204 S1000
M205 X8 Y8
G1 F1500 X17.812 Y149.051 E154.70238
M204 S2000
M205 X10 Y10
G0 F3000 X17.812 Y148.485
M204 S1000
M205 X8 Y8
G1 F1500 X24.815 Y155.489 E155.03181
M204 S2000
M205 X10 Y10
G0 F3000 X25.381 Y155.489
M204 S1000
M205 X8 Y8
G1 F1500 X17.812 Y147.92 E155.38783
M204 S2000
M205 X10 Y10
G0 F3000 X17.812 Y147.354
M204 S1000
M205 X8 Y8
G1 F1500 X25.947 Y155.489 E155.77047
M204 S2000
M205 X10 Y10
G0 F3000 X26.512 Y155.489
M204 S1000
M205 X8 Y8
G1 F1500 X17.812 Y146.788 E156.17972
M204 S2000
M205 X10 Y10
G0 F3000 X17.812 Y146.223
M204 S1000
M205 X8 Y8
G1 F1500 X27.078 Y155.489 E156.61556
M204 S2000
M205 X10 Y10
G0 F3000 X27.644 Y155.489
M204 S1000
M205 X8 Y8
G1 F1500 X17.812 Y145.657 E157.07803
M204 S2000
M205 X10 Y10
G0 F3000 X17.812 Y145.091
M204 S1000
M205 X8 Y8
G1 F1500 X28.209 Y155.489 E157.5671
M204 S2000
M205 X10 Y10
G0 F3000 X28.775 Y155.489
M204 S1000
M205 X8 Y8
G1 F1500 X17.812 Y144.526 E158.08276
M204 S2000
M205 X10 Y10
G0 F3000 X17.812 Y143.96
M204 S1000
M205 X8 Y8
G1 F1500 X29.341 Y155.489 E158.62505
M204 S2000
M205 X10 Y10
G0 F3000 X29.906 Y155.489
M204 S1000
M205 X8 Y8
G1 F1500 X17.812 Y143.394 E159.19394
M204 S2000
M205 X10 Y10
G0 F3000 X17.812 Y142.828
M204 S1000
M205 X8 Y8
G1 F1500 X30.472 Y155.489 E159.78945
M204 S2000
M205 X10 Y10
G0 F3000 X31.038 Y155.489
M204 S1000
M205 X8 Y8
G1 F1500 X17.812 Y142.263 E160.41156
M204 S2000
M205 X10 Y10
G0 F3000 X17.812 Y141.697
M204 S1000
M205 X8 Y8
G1 F1500 X31.603 Y155.489 E161.06027
M204 S2000
M205 X10 Y10
G0 F3000 X32.169 Y155.489
M204 S1000
M205 X8 Y8
G1 F1500 X17.812 Y141.131 E161.7356
M204 S2000
M205 X10 Y10
G0 F3000 X17.812 Y140.566
M204 S1000
M205 X8 Y8
G1 F1500 X32.735 Y155.489 E162.43754
M204 S2000
M205 X10 Y10
G0 F3000 X33.3 Y155.489
M204 S1000
M205 X8 Y8
G1 F1500 X17.812 Y140 E163.16607
M204 S2000
M205 X10 Y10
G0 F3000 X17.812 Y139.434
M204 S1000
M205 X8 Y8
G1 F1500 X33.866 Y155.489 E163.92122
M204 S2000
M205 X10 Y10
G0 F3000 X34.432 Y155.489
M204 S1000
M205 X8 Y8
G1 F1500 X17.812 Y138.869 E164.70298
M204 S2000
M205 X10 Y10
G0 F3000 X17.812 Y138.303
M204 S1000
M205 X8 Y8
G1 F1500 X34.998 Y155.489 E165.51135
M204 S2000
M205 X10 Y10
G0 F3000 X35.563 Y155.489
M204 S1000
M205 X8 Y8
G1 F1500 X17.812 Y137.737 E166.34633
M204 S2000
M205 X10 Y10
G0 F3000 X17.812 Y137.172
M204 S1000
M205 X8 Y8
G1 F1500 X36.129 Y155.489 E167.20791
M204 S2000
M205 X10 Y10
G0 F3000 X36.695 Y155.489
M204 S1000
M205 X8 Y8
G1 F1500 X17.812 Y136.606 E168.0961
M204 S2000
M205 X10 Y10
G0 F3000 X17.812 Y136.04
M204 S1000
M205 X8 Y8
G1 F1500 X37.26 Y155.489 E169.0109
M204 S2000
M205 X10 Y10
G0 F3000 X37.826 Y155.489
M204 S1000
M205 X8 Y8
G1 F1500 X17.812 Y135.475 E169.9523
M204 S2000
M205 X10 Y10
G0 F3000 X17.812 Y134.909
M204 S1000
M205 X8 Y8
G1 F1500 X38.392 Y155.489 E170.92032
M204 S2000
M205 X10 Y10
G0 F3000 X38.957 Y155.489
M204 S1000
M205 X8 Y8
G1 F1500 X17.812 Y134.343 E171.91494
M204 S2000
M205 X10 Y10
G0 F3000 X17.812 Y133.778
M204 S1000
M205 X8 Y8
G1 F1500 X39.523 Y155.489 E172.93616
M204 S2000
M205 X10 Y10
G0 F3000 X40.089 Y155.489
M204 S1000
M205 X8 Y8
G1 F1500 X17.812 Y133.212 E173.984
M204 S2000
M205 X10 Y10
G0 F3000 X17.812 Y132.646
M204 S1000
M205 X8 Y8
G1 F1500 X40.654 Y155.489 E175.05844
M204 S2000
M205 X10 Y10
G0 F3000 X41.22 Y155.489
M204 S1000
M205 X8 Y8
G1 F1500 X17.812 Y132.08 E176.1595
M204 S2000
M205 X10 Y10
G0 F3000 X17.812 Y131.515
M204 S1000
M205 X8 Y8
G1 F1500 X41.786 Y155.489 E177.28717
M204 S2000
M205 X10 Y10
G0 F3000 X42.351 Y155.489
M204 S1000
M205 X8 Y8
G1 F1500 X17.812 Y130.949 E178.44143
M204 S2000
M205 X10 Y10
G0 F3000 X17.812 Y130.383
M204 S1000
M205 X8 Y8
G1 F1500 X42.917 Y155.489 E179.62232
M204 S2000
M205 X10 Y10
G0 F3000 X43.483 Y155.489
M204 S1000
M205 X8 Y8
G1 F1500 X17.812 Y129.818 E180.8298
M204 S2000
M205 X10 Y10
G0 F3000 X17.812 Y129.252
M204 S1000
M205 X8 Y8
G1 F1500 X44.049 Y155.489 E182.06391
M204 S2000
M205 X10 Y10
G0 F3000 X44.614 Y155.489
M204 S1000
