;FLAVOR:Marlin
;TIME:20195
;Filament used: 18.3577m
;Layer height: 0.2
;MINX:19.702
;MINY:14.06
;MINZ:0.2
;MAXX:104.414
;MAXY:161.519
;MAXZ:28
;TARGET_MACHINE.NAME:Anycubic Kobra
;Generated with Cura_SteamEngine 5.7.1
M140 S60
M105
M190 S60
M104 S200
M105
M109 S200
M82 ;absolute extrusion mode
G28 ;Home
G1 Z15.0 F1200 ;Move the platform down 15mm
;Prime the extruder
G92 E0
G1 F200 E3
G92 E0
G92 E0
G92 E0
G1 F2400 E-6
;LAYER_COUNT:140
;LAYER:0
M107
M204 S2000
M205 X10 Y10
G0 F3000 X21.949 Y17.287 Z0.2
M204 S1000
M205 X8 Y8
;TYPE:SKIRT
G1 F2400 E0
G1 X22.547 Y16.672 E0.02853
G1 X23.039 Y16.192 E0.05139
G1 X23.608 Y15.751 E0.07534
G1 X24.172 Y15.408 E0.09729
G1 X24.724 Y15.091 E0.11846
G1 X25.218 Y14.861 E0.13659
G1 X25.948 Y14.595 E0.16243
G1 X26.582 Y14.383 E0.18466
G1 X27.179 Y14.245 E0.20504
G1 X27.861 Y14.157 E0.22791
G1 X28.695 Y14.073 E0.25579
G1 X29.625 Y14.06 E0.28673
G1 X100.553 Y14.061 E2.6458
G1 X101.25 Y14.071 E2.66899
G1 X101.753 Y14.118 E2.68579
G1 X102.243 Y14.244 E2.70262
G1 X102.707 Y14.446 E2.71945
G1 X103.133 Y14.718 E2.73626
G1 X103.511 Y15.053 E2.75306
G1 X103.831 Y15.444 E2.76987
G1 X104.086 Y15.881 E2.78669
G1 X104.269 Y16.352 E2.8035
G1 X104.376 Y16.846 E2.82031
G1 X104.414 Y17.591 E2.84512
G1 X104.414 Y157.622 E7.50257
G1 X104.405 Y158.349 E7.52675
G1 X104.359 Y158.852 E7.54355
G1 X104.234 Y159.342 E7.56037
G1 X104.033 Y159.806 E7.57719
G1 X103.762 Y160.233 E7.59401
G1 X103.427 Y160.612 E7.61084
G1 X103.037 Y160.933 E7.62764
G1 X102.601 Y161.189 E7.64445
G1 X102.13 Y161.372 E7.66126
G1 X101.636 Y161.48 E7.67808
G1 X100.994 Y161.517 E7.69947
G1 X29.538 Y161.519 E10.0761
G1 X28.702 Y161.506 E10.10391
G1 X27.828 Y161.418 E10.13313
G1 X27.189 Y161.336 E10.15456
G1 X26.576 Y161.195 E10.17548
G1 X25.839 Y160.946 E10.20135
G1 X25.228 Y160.721 E10.22301
G1 X24.696 Y160.467 E10.24261
G1 X23.552 Y159.782 E10.28696
G1 X22.981 Y159.326 E10.31127
G1 X22.427 Y158.788 E10.33695
G1 X21.942 Y158.287 E10.36014
G1 X21.55 Y157.793 E10.38112
G1 X21.121 Y157.124 E10.40755
G1 X20.772 Y156.545 E10.43004
G1 X20.509 Y155.995 E10.45032
G1 X20.266 Y155.33 E10.47386
G1 X20.05 Y154.676 E10.49677
G1 X19.916 Y154.086 E10.51689
G1 X19.832 Y153.428 E10.53896
G1 X19.746 Y152.556 E10.5681
G1 X19.734 Y151.665 E10.59774
G1 X19.735 Y26.173 E14.77162
G1 X19.702 Y23.549 E14.8589
G1 X19.796 Y22.481 E14.89456
G1 X19.891 Y21.599 E14.92407
G1 X19.996 Y20.829 E14.94991
G1 X20.104 Y20.335 E14.96673
G1 X20.407 Y19.644 E14.99183
G1 X20.753 Y19.055 E15.01455
G1 X21.147 Y18.414 E15.03957
G1 X21.56 Y17.776 E15.06485
G1 X21.949 Y17.287 E15.08563
M204 S2000
M205 X10 Y10
G1 F2400 E9.08563
G0 F3000 X24.394 Y19.635
M204 S1000
M205 X8 Y8
G1 F2400 E15.08563
G1 X25.36 Y18.666 E15.13114
G1 X25.446 Y18.641 E15.13412
G1 X26.405 Y18.037 E15.17182
G1 X27.639 Y17.605 E15.2153
G1 X28.896 Y17.46 E15.25739
G1 X101.014 Y17.461 E17.65604
G1 X101.014 Y158.118 E22.33431
G1 X28.895 Y158.119 E24.733
G1 X27.64 Y157.975 E24.77501
G1 X26.419 Y157.547 E24.81805
G1 X25.966 Y157.265 E24.83579
G1 X25.923 Y157.253 E24.83728
G1 X25.313 Y156.868 E24.86127
G1 X24.393 Y155.946 E24.90459
G1 X23.686 Y154.812 E24.94904
G1 X23.275 Y153.629 E24.99069
G1 X23.134 Y152.376 E25.03263
G1 X23.135 Y23.596 E29.31587
G1 X23.105 Y23.504 E29.31909
G1 X23.194 Y22.662 E29.34725
G1 X23.19 Y22.641 E29.34796
G1 X23.336 Y21.437 E29.3883
G1 X23.386 Y21.421 E29.39005
G1 X23.451 Y21.338 E29.39355
G1 X23.702 Y20.742 E29.41506
G1 X24.394 Y19.635 E29.45848
M204 S2000
M205 X10 Y10
G0 F3000 X24.709 Y19.886
M204 S1000
M205 X8 Y8
G1 F2400 X25.567 Y19.026 E29.49889
G1 X25.659 Y18.98 E29.50231
G1 X26.583 Y18.397 E29.53865
G1 X27.728 Y17.997 E29.57899
G1 X28.916 Y17.86 E29.61876
G1 X100.614 Y17.861 E32.00345
G1 X100.614 Y21.422 E32.12189
G1 X100.414 Y21.374 E32.12873
G1 X31.412 Y21.374 E34.42374
G1 X31.335 Y21.379 E34.42631
G1 X30.562 Y21.479 E34.45223
G1 X30.447 Y21.505 E34.45616
G1 X29.702 Y21.756 E34.4823
G1 X29.604 Y21.799 E34.48586
G1 X28.916 Y22.178 E34.51199
G1 X28.82 Y22.245 E34.51588
G1 X28.237 Y22.735 E34.54121
G1 X28.157 Y22.815 E34.54497
G1 X27.661 Y23.425 E34.57112
G1 X27.596 Y23.524 E34.57506
G1 X27.223 Y24.231 E34.60165
G1 X27.182 Y24.328 E34.60515
G1 X26.943 Y25.076 E34.63127
G1 X26.92 Y25.183 E34.63491
G1 X26.819 Y25.977 E34.66153
G1 X26.814 Y26.061 E34.66433
G1 X28.395 Y151.314 E38.83059
G1 X28.399 Y151.371 E38.83249
G1 X28.486 Y152.168 E38.85916
G1 X28.508 Y152.278 E38.86289
G1 X28.753 Y153.083 E38.89088
G1 X28.8 Y153.196 E38.89495
G1 X29.202 Y153.932 E38.92284
G1 X29.263 Y154.021 E38.92643
G1 X29.776 Y154.655 E38.95356
G1 X29.787 Y154.669 E38.95415
G1 X29.863 Y154.747 E38.95777
G1 X29.889 Y154.769 E38.9589
G1 X30.507 Y155.285 E38.98568
G1 X30.532 Y155.306 E38.98677
G1 X30.626 Y155.37 E38.99055
G1 X30.655 Y155.386 E38.99165
G1 X30.659 Y155.389 E38.99182
G1 X31.37 Y155.774 E39.01871
G1 X31.474 Y155.819 E39.02248
G1 X31.601 Y155.861 E39.02693
G1 X32.275 Y156.084 E39.05054
G1 X32.389 Y156.109 E39.05442
G1 X32.557 Y156.13 E39.06005
G1 X33.217 Y156.212 E39.08217
G1 X33.29 Y156.216 E39.0846
G1 X100.414 Y156.218 E41.31716
G1 X100.614 Y156.181 E41.32392
G1 X100.614 Y157.718 E41.37504
G1 X28.914 Y157.719 E43.75979
G1 X27.731 Y157.584 E43.7994
G1 X26.591 Y157.183 E43.83959
G1 X26.177 Y156.926 E43.8558
G1 X26.115 Y156.902 E43.85801
G1 X25.567 Y156.556 E43.87956
G1 X24.708 Y155.695 E43.92002
G1 X24.049 Y154.639 E43.96142
G1 X23.667 Y153.537 E44.00021
G1 X23.534 Y152.357 E44.0397
G1 X23.535 Y23.596 E48.32231
G1 X23.511 Y23.468 E48.32664
G1 X23.592 Y22.704 E48.3522
G1 X23.589 Y22.669 E48.35337
G1 X23.714 Y21.642 E48.38778
G1 X23.82 Y21.493 E48.39386
G1 X24.059 Y20.925 E48.41435
G1 X24.709 Y19.886 E48.45512
M204 S2000
M205 X10 Y10
G0 F3000 X25.024 Y20.135
M204 S1000
M205 X8 Y8
G1 F2400 X25.813 Y19.344 E48.49228
G1 X25.872 Y19.318 E48.49442
G1 X26.755 Y18.762 E48.52913
G1 X27.822 Y18.388 E48.56673
G1 X28.935 Y18.26 E48.60399
G1 X100.214 Y18.261 E50.97474
G1 X100.214 Y20.974 E51.06498
G1 X31.412 Y20.974 E53.35334
G1 X31.284 Y20.982 E53.35761
G1 X30.511 Y21.082 E53.38353
G1 X30.32 Y21.126 E53.39005
G1 X29.575 Y21.377 E53.4162
G1 X29.411 Y21.449 E53.42216
G1 X28.723 Y21.828 E53.44828
G1 X28.563 Y21.938 E53.45474
G1 X27.98 Y22.428 E53.48007
G1 X27.847 Y22.563 E53.48637
G1 X27.351 Y23.173 E53.51252
G1 X27.243 Y23.337 E53.51905
G1 X26.87 Y24.044 E53.54564
G1 X26.801 Y24.207 E53.55153
G1 X26.562 Y24.955 E53.57764
G1 X26.523 Y25.133 E53.5837
G1 X26.422 Y25.927 E53.61033
G1 X26.414 Y26.066 E53.61496
G1 X27.995 Y151.319 E57.78122
G1 X28.001 Y151.415 E57.78442
G1 X28.088 Y152.212 E57.81109
G1 X28.125 Y152.394 E57.81726
G1 X28.37 Y153.199 E57.84525
G1 X28.449 Y153.387 E57.85203
G1 X28.851 Y154.123 E57.87993
G1 X28.952 Y154.273 E57.88594
G1 X29.465 Y154.907 E57.91307
G1 X29.468 Y154.911 E57.91323
G1 X29.477 Y154.922 E57.9137
G1 X29.605 Y155.052 E57.91977
G1 X29.631 Y155.074 E57.9209
G1 X29.636 Y155.078 E57.92112
G1 X30.251 Y155.592 E57.94778
G1 X30.276 Y155.613 E57.94886
G1 X30.433 Y155.721 E57.9552
G1 X30.462 Y155.737 E57.9563
G1 X30.469 Y155.74 E57.95656
G1 X31.18 Y156.125 E57.98345
G1 X31.349 Y156.199 E57.98958
G1 X31.477 Y156.241 E57.99406
G1 X32.149 Y156.463 E58.0176
G1 X32.339 Y156.506 E58.02408
G1 X32.507 Y156.527 E58.02971
G1 X33.168 Y156.609 E58.05187
G1 X33.29 Y156.616 E58.05593
G1 X100.214 Y156.618 E60.28183
G1 X100.214 Y157.318 E60.30511
G1 X28.943 Y157.319 E62.6756
G1 X27.815 Y157.19 E62.71336
G1 X26.767 Y156.822 E62.7503
G1 X26.388 Y156.586 E62.76515
G1 X26.315 Y156.554 E62.7678
G1 X25.814 Y156.237 E62.78752
G1 X25.022 Y155.444 E62.8248
G1 X24.414 Y154.469 E62.86302
G1 X24.06 Y153.45 E62.8989
G1 X23.934 Y152.33 E62.93638
G1 X23.935 Y23.596 E67.21809
G1 X23.914 Y23.452 E67.22293
G1 X23.989 Y22.746 E67.24655
G1 X23.988 Y22.706 E67.24788
G1 X24.099 Y21.792 E67.2785
G1 X24.189 Y21.648 E67.28415
G1 X24.417 Y21.107 E67.30367
G1 X25.024 Y20.135 E67.34179
M204 S2000
M205 X10 Y10
G1 F2400 E61.34179
G0 F3000 X28.468 Y23.068
M204 S1000
M205 X8 Y8
G1 F2400 E67.34179
G1 X27.972 Y23.678 E67.36794
G1 X27.95 Y23.711 E67.36926
G1 X27.577 Y24.418 E67.39584
G1 X27.563 Y24.45 E67.39701
G1 X27.324 Y25.198 E67.42312
G1 X27.317 Y25.234 E67.42434
G1 X27.216 Y26.028 E67.45096
G1 X27.214 Y26.056 E67.4519
G1 X28.795 Y151.309 E71.61816
G1 X28.796 Y151.328 E71.6188
G1 X28.883 Y152.125 E71.64546
G1 X28.891 Y152.161 E71.64669
G1 X29.136 Y152.966 E71.67467
G1 X29.151 Y153.004 E71.67603
G1 X29.553 Y153.74 E71.70393
G1 X29.574 Y153.77 E71.70514
G1 X30.087 Y154.404 E71.73227
G1 X30.096 Y154.416 E71.73277
G1 X30.122 Y154.442 E71.73399
G1 X30.148 Y154.464 E71.73512
G1 X30.764 Y154.978 E71.76181
G1 X30.788 Y154.999 E71.76287
G1 X30.819 Y155.02 E71.76411
G1 X30.848 Y155.036 E71.76522
G1 X31.561 Y155.422 E71.79218
G1 X31.599 Y155.439 E71.79357
G1 X31.727 Y155.481 E71.79805
G1 X32.401 Y155.704 E71.82166
G1 X32.438 Y155.712 E71.82292
G1 X32.606 Y155.733 E71.82855
G1 X33.265 Y155.814 E71.85063
G1 X33.29 Y155.816 E71.85147
G1 X100.414 Y155.818 E74.08402
G1 X100.533 Y155.779 E74.08819
G1 X100.614 Y155.618 E74.09418
G1 X100.614 Y21.974 E78.5392
G1 X100.575 Y21.855 E78.54336
G1 X100.414 Y21.774 E78.54936
G1 X31.412 Y21.774 E80.84437
G1 X31.386 Y21.776 E80.84524
G1 X30.613 Y21.876 E80.87117
G1 X30.575 Y21.884 E80.87246
G1 X29.83 Y22.135 E80.8986
G1 X29.797 Y22.15 E80.89981
G1 X29.109 Y22.529 E80.92593
G1 X29.077 Y22.551 E80.92723
G1 X28.494 Y23.041 E80.95256
G1 X28.468 Y23.068 E80.9538
M204 S2000
M205 X10 Y10
G0 F3000 X27.635 Y22.195
M204 S1000
M205 X8 Y8
;TYPE:SUPPORT
G1 F1500 X28.404 Y21.547 E80.98725
G1 X29.311 Y21.044 E81.02175
G1 X30.333 Y20.698 E81.05763
G1 X31.306 Y20.573 E81.09026
G1 X99.812 Y20.572 E83.36878
G1 X99.812 Y18.66 E83.43237
G1 X28.964 Y18.66 E85.78879
G1 X27.905 Y18.781 E85.82424
G1 X26.932 Y19.122 E85.85853
G1 X26.034 Y19.686 E85.8938
G1 X25.334 Y20.39 E85.92682
G1 X24.767 Y21.297 E85.9624
G1 X24.476 Y21.987 E85.9873
G1 X24.332 Y23.284 E86.03071
G1 X24.332 Y152.308 E90.32206
G1 X24.453 Y153.355 E90.35712
G1 X24.778 Y154.297 E90.39026
G1 X25.334 Y155.19 E90.42525
G1 X26.064 Y155.92 E90.45959
G1 X26.943 Y156.458 E90.49386
G1 X27.905 Y156.795 E90.52777
G1 X28.964 Y156.916 E90.56322
G1 X31.032 Y156.916 E90.632
G1 F1445.8 X32.169 Y156.901 E90.67124
G1 X31.059 Y156.52 E90.71173
G1 F1500 X30.103 Y155.99 E90.74809
G1 X29.236 Y155.259 E90.78581
G1 X28.566 Y154.436 E90.82111
G1 X28.02 Y153.434 E90.85906
G1 X27.701 Y152.362 E90.89626
G1 X27.597 Y151.406 E90.92824
G1 X26.013 Y25.95 E95.10126
G1 X26.137 Y24.974 E95.13398
G1 X26.449 Y23.983 E95.16854
G1 X26.949 Y23.032 E95.20427
G1 X27.635 Y22.195 E95.24027
M204 S2000
M205 X10 Y10
G1 F2400 E89.24027
G0 F3000 X27.451 Y26.058
G0 X29.031 Y151.305
G0 X29.36 Y152.892
G0 X32.169 Y156.901
M204 S1000
M205 X8 Y8
G1 F2400 E95.24027
G1 F1558.4 X33.193 Y156.965 E95.27311
G1 F1764.7 X99.862 Y156.966 E97.15792
M204 S2000
M205 X10 Y10
G1 F2400 E91.15792
G0 F3000 X29.337 Y156.776
M204 S1000
M205 X8 Y8
G1 F2400 E97.15792
G1 F1500 X29.337 Y155.53 E97.19936
M204 S2000
M205 X10 Y10
G0 F3000 X28.596 Y154.686
M204 S1000
M205 X8 Y8
G1 F1500 X25.184 Y154.686 E97.31285
M204 S2000
M205 X10 Y10
G1 F2400 E91.31285
G0 F3000 X26.67 Y156.126
M204 S1000
M205 X8 Y8
G1 F2400 E97.31285
G1 F1500 X26.67 Y88.95 E99.54713
M204 S2000
M205 X10 Y10
G0 F3000 X26.659 Y88.011
M204 S1000
M205 X8 Y8
G1 F1500 X24.472 Y88.011 E99.61987
M204 S2000
M205 X10 Y10
G1 F2400 E93.61987
G0 F3000 X24.472 Y90.678
M204 S1000
M205 X8 Y8
G1 F2400 E99.61987
G1 F1500 X26.692 Y90.678 E99.69371
M204 S2000
M205 X10 Y10
G1 F2400 E93.69371
G0 F3000 X26.726 Y93.345
M204 S1000
M205 X8 Y8
G1 F2400 E99.69371
G1 F1500 X24.472 Y93.345 E99.76867
M204 S2000
M205 X10 Y10
G1 F2400 E93.76867
G0 F3000 X24.472 Y96.012
M204 S1000
M205 X8 Y8
G1 F2400 E99.76867
G1 F1500 X26.76 Y96.012 E99.84477
M204 S2000
M205 X10 Y10
G1 F2400 E93.84477
G0 F3000 X26.793 Y98.679
M204 S1000
M205 X8 Y8
G1 F2400 E99.84477
G1 F1500 X24.472 Y98.679 E99.92197
M204 S2000
M205 X10 Y10
G1 F2400 E93.92197
G0 F3000 X24.472 Y101.346
M204 S1000
M205 X8 Y8
G1 F2400 E99.92197
G1 F1500 X26.827 Y101.346 E100.0003
M204 S2000
M205 X10 Y10
G1 F2400 E94.0003
G0 F3000 X26.861 Y104.013
M204 S1000
M205 X8 Y8
G1 F2400 E100.0003
G1 F1500 X24.472 Y104.013 E100.07976
M204 S2000
M205 X10 Y10
G1 F2400 E94.07976
G0 F3000 X24.472 Y106.68
M204 S1000
M205 X8 Y8
G1 F2400 E100.07976
G1 F1500 X26.894 Y106.68 E100.16031
M204 S2000
M205 X10 Y10
G1 F2400 E94.16031
G0 F3000 X26.928 Y109.347
M204 S1000
M205 X8 Y8
G1 F2400 E100.16031
G1 F1500 X24.472 Y109.347 E100.242
M204 S2000
M205 X10 Y10
G1 F2400 E94.242
G0 F3000 X24.472 Y112.014
M204 S1000
M205 X8 Y8
G1 F2400 E100.242
G1 F1500 X26.961 Y112.014 E100.32478
M204 S2000
M205 X10 Y10
G1 F2400 E94.32478
G0 F3000 X26.995 Y114.681
M204 S1000
M205 X8 Y8
G1 F2400 E100.32478
G1 F1500 X24.472 Y114.681 E100.4087
M204 S2000
M205 X10 Y10
G1 F2400 E94.4087
G0 F3000 X24.472 Y117.348
M204 S1000
M205 X8 Y8
G1 F2400 E100.4087
G1 F1500 X27.029 Y117.348 E100.49375
M204 S2000
M205 X10 Y10
G1 F2400 E94.49375
G0 F3000 X27.062 Y120.015
M204 S1000
M205 X8 Y8
G1 F2400 E100.49375
G1 F1500 X24.472 Y120.015 E100.57989
M204 S2000
M205 X10 Y10
G1 F2400 E94.57989
G0 F3000 X24.472 Y122.682
M204 S1000
M205 X8 Y8
G1 F2400 E100.57989
G1 F1500 X27.096 Y122.682 E100.66716
M204 S2000
M205 X10 Y10
G1 F2400 E94.66716
G0 F3000 X27.13 Y125.349
M204 S1000
M205 X8 Y8
G1 F2400 E100.66716
G1 F1500 X24.472 Y125.349 E100.75557
M204 S2000
M205 X10 Y10
G1 F2400 E94.75557
G0 F3000 X24.472 Y128.016
M204 S1000
M205 X8 Y8
G1 F2400 E100.75557
G1 F1500 X27.163 Y128.016 E100.84507
M204 S2000
M205 X10 Y10
G1 F2400 E94.84507
G0 F3000 X27.197 Y130.683
M204 S1000
M205 X8 Y8
G1 F2400 E100.84507
G1 F1500 X24.472 Y130.683 E100.93571
M204 S2000
M205 X10 Y10
G1 F2400 E94.93571
G0 F3000 X24.472 Y133.35
M204 S1000
M205 X8 Y8
G1 F2400 E100.93571
G1 F1500 X27.231 Y133.35 E101.02747
M204 S2000
M205 X10 Y10
G1 F2400 E95.02747
G0 F3000 X27.264 Y136.017
M204 S1000
M205 X8 Y8
G1 F2400 E101.02747
G1 F1500 X24.472 Y136.017 E101.12033
M204 S2000
M205 X10 Y10
G1 F2400 E95.12033
G0 F3000 X24.472 Y138.684
M204 S1000
M205 X8 Y8
G1 F2400 E101.12033
G1 F1500 X27.298 Y138.684 E101.21433
M204 S2000
M205 X10 Y10
G1 F2400 E95.21433
G0 F3000 X27.331 Y141.351
M204 S1000
M205 X8 Y8
G1 F2400 E101.21433
G1 F1500 X24.472 Y141.351 E101.30942
M204 S2000
M205 X10 Y10
G1 F2400 E95.30942
G0 F3000 X24.472 Y144.018
M204 S1000
M205 X8 Y8
G1 F2400 E101.30942
G1 F1500 X27.365 Y144.018 E101.40564
M204 S2000
M205 X10 Y10
G1 F2400 E95.40564
G0 F3000 X27.399 Y146.685
M204 S1000
M205 X8 Y8
G1 F2400 E101.40564
G1 F1500 X24.472 Y146.685 E101.50299
M204 S2000
M205 X10 Y10
G1 F2400 E95.50299
G0 F3000 X24.472 Y149.352
M204 S1000
M205 X8 Y8
G1 F2400 E101.50299
G1 F1500 X27.432 Y149.352 E101.60144
M204 S2000
M205 X10 Y10
G1 F2400 E95.60144
G0 F3000 X27.527 Y152.019
M204 S1000
M205 X8 Y8
G1 F2400 E101.60144
G1 F1500 X24.472 Y152.019 E101.70305
M204 S2000
M205 X10 Y10
G1 F2400 E95.70305
G0 F3000 X24.472 Y85.344
M204 S1000
M205 X8 Y8
G1 F2400 E101.70305
G1 F1500 X26.625 Y85.344 E101.77466
M204 S2000
M205 X10 Y10
G1 F2400 E95.77466
G0 F3000 X26.591 Y82.677
M204 S1000
M205 X8 Y8
G1 F2400 E101.77466
G1 F1500 X24.472 Y82.677 E101.84514
M204 S2000
M205 X10 Y10
G1 F2400 E95.84514
G0 F3000 X24.472 Y80.01
M204 S1000
M205 X8 Y8
G1 F2400 E101.84514
G1 F1500 X26.558 Y80.01 E101.91452
M204 S2000
M205 X10 Y10
G1 F2400 E95.91452
G0 F3000 X26.524 Y77.343
M204 S1000
M205 X8 Y8
G1 F2400 E101.91452
G1 F1500 X24.472 Y77.343 E101.98277
M204 S2000
M205 X10 Y10
G1 F2400 E95.98277
G0 F3000 X24.472 Y74.676
M204 S1000
M205 X8 Y8
G1 F2400 E101.98277
G1 F1500 X26.49 Y74.676 E102.04989
M204 S2000
M205 X10 Y10
G1 F2400 E96.04989
G0 F3000 X26.457 Y72.009
M204 S1000
M205 X8 Y8
G1 F2400 E102.04989
G1 F1500 X24.472 Y72.009 E102.11591
M204 S2000
M205 X10 Y10
G1 F2400 E96.11591
G0 F3000 X24.472 Y69.342
M204 S1000
M205 X8 Y8
G1 F2400 E102.11591
G1 F1500 X26.423 Y69.342 E102.1808
M204 S2000
M205 X10 Y10
G1 F2400 E96.1808
G0 F3000 X26.39 Y66.675
M204 S1000
M205 X8 Y8
G1 F2400 E102.1808
G1 F1500 X24.472 Y66.675 E102.24459
M204 S2000
M205 X10 Y10
G1 F2400 E96.24459
G0 F3000 X24.472 Y64.008
M204 S1000
M205 X8 Y8
