;FLAVOR:Marlin
;TIME:1535
;Filament used: 1.40737m
;Layer height: 0.2
;MINX:10.67
;MINY:10.89
;MINZ:0.2
;MAXX:61.87
;MAXY:70.427
;MAXZ:6
;TARGET_MACHINE.NAME:Anycubic Kobra
;Generated with Cura_SteamEngine 5.7.1
M140 S60
M105
M190 S60
M104 S200
M105
M109 S200
M82 ;absolute extrusion mode
G28 ;Home
G1 Z15.0 F1200 ;Move the platform down 15mm
;Prime the extruder
G92 E0
G1 F200 E3
G92 E0
G92 E0
G92 E0
G1 F2400 E-6
;LAYER_COUNT:30
;LAYER:0
M107
M204 S2000
M205 X10 Y10
G0 F3000 X17.014 Y17.297 Z0.2
M204 S1000
M205 X8 Y8
;TYPE:SKIRT
G1 F2400 E0
G1 X17.938 Y16.426 E0.04223
G1 X18.545 Y15.898 E0.06899
G1 X19.658 Y15.039 E0.11575
G1 X20.302 Y14.585 E0.14196
G1 X21.302 Y13.957 E0.18124
G1 X22.059 Y13.52 E0.21031
G1 X23.294 Y12.902 E0.25624
G1 X23.979 Y12.597 E0.28118
G1 X25.153 Y12.145 E0.32302
G1 X25.987 Y11.863 E0.3523
G1 X27.234 Y11.522 E0.3953
G1 X27.995 Y11.346 E0.42128
G1 X29.335 Y11.116 E0.4665
G1 X30.401 Y10.978 E0.50225
G1 X32.399 Y10.895 E0.56876
G1 X39.629 Y10.89 E0.80923
G1 X40.624 Y10.905 E0.84233
G1 X41.487 Y10.945 E0.87107
G1 X42.604 Y11.025 E0.90831
G1 X44.294 Y11.29 E0.96521
G1 X45.613 Y11.598 E1.01026
G1 X46.437 Y11.825 E1.03869
G1 X47.68 Y12.247 E1.08235
G1 X48.714 Y12.644 E1.11918
G1 X50.271 Y13.401 E1.17677
G1 X51.465 Y14.091 E1.22263
G1 X52.441 Y14.707 E1.26102
G1 X53.84 Y15.767 E1.3194
G1 X54.897 Y16.695 E1.36618
G1 X55.693 Y17.446 E1.40258
G1 X56.801 Y18.685 E1.45786
G1 X57.735 Y19.897 E1.50876
G1 X58.175 Y20.523 E1.53421
G1 X58.874 Y21.64 E1.57803
G1 X59.25 Y22.298 E1.60324
G1 X59.853 Y23.503 E1.64806
G1 X60.238 Y24.353 E1.67909
G1 X60.425 Y24.839 E1.69641
G1 X60.871 Y26.106 E1.74109
G1 X61.239 Y27.454 E1.78756
G1 X61.416 Y28.229 E1.814
G1 X61.642 Y29.546 E1.85845
G1 X61.784 Y30.632 E1.89487
G1 X61.865 Y32.619 E1.96102
G1 X61.87 Y51.166 E2.57789
G1 X61.839 Y52.408 E2.61921
G1 X61.755 Y53.569 E2.65793
G1 X61.672 Y54.495 E2.68885
G1 X61.475 Y55.47 E2.72194
G1 X61.11 Y57.078 E2.77678
G1 X60.547 Y58.626 E2.83157
G1 X60.167 Y59.593 E2.86612
G1 X59.387 Y61.047 E2.921
G1 X58.916 Y61.879 E2.9528
G1 X58.296 Y62.734 E2.98793
G1 X57.313 Y64.023 E3.04184
G1 X56.086 Y65.267 E3.09996
G1 X55.472 Y65.863 E3.12842
G1 X54.059 Y66.941 E3.18753
G1 X53.307 Y67.483 E3.21836
G1 X52.376 Y68.007 E3.2539
G1 X51.042 Y68.722 E3.30424
G1 X50.072 Y69.103 E3.3389
G1 X48.513 Y69.669 E3.39406
G1 X47.471 Y69.91 E3.42963
G1 X45.92 Y70.233 E3.48233
G1 X44.978 Y70.315 E3.51378
G1 X43.205 Y70.427 E3.57286
G1 X29.889 Y70.427 E4.01576
G1 X29.172 Y70.417 E4.03961
G1 X28.605 Y70.391 E4.05848
G1 X26.653 Y70.239 E4.1236
G1 X24.98 Y69.891 E4.18044
G1 X24.051 Y69.675 E4.21216
G1 X22.388 Y69.071 E4.27101
G1 X21.539 Y68.74 E4.30132
G1 X20.049 Y67.943 E4.35752
G1 X19.209 Y67.468 E4.38962
G1 X18.36 Y66.85 E4.42454
G1 X17.079 Y65.873 E4.47813
G1 X15.848 Y64.659 E4.53563
G1 X15.194 Y63.981 E4.56696
G1 X14.143 Y62.597 E4.62476
G1 X13.603 Y61.847 E4.6555
G1 X12.82 Y60.436 E4.70917
G1 X12.347 Y59.533 E4.74308
G1 X11.983 Y58.597 E4.77648
G1 X11.425 Y57.056 E4.83099
G1 X11.201 Y56.084 E4.86417
G1 X10.862 Y54.464 E4.91922
G1 X10.779 Y53.488 E4.95179
G1 X10.672 Y51.813 E5.00762
G1 X10.67 Y33.131 E5.62898
G1 X10.685 Y32.137 E5.66205
G1 X10.725 Y31.273 E5.69082
G1 X10.805 Y30.158 E5.728
G1 X11.07 Y28.466 E5.78496
G1 X11.378 Y27.147 E5.83001
G1 X11.603 Y26.333 E5.8581
G1 X12.049 Y25.026 E5.90403
G1 X12.44 Y24.012 E5.94018
G1 X13.176 Y22.5 E5.99611
G1 X13.871 Y21.298 E6.04229
G1 X14.318 Y20.592 E6.07008
G1 X15.118 Y19.474 E6.1158
G1 X15.58 Y18.885 E6.1407
G1 X16.538 Y17.794 E6.18899
G1 X17.014 Y17.297 E6.21188
M204 S2000
M205 X10 Y10
G0 F3000 X17.303 Y17.574
M204 S1000
M205 X8 Y8
G1 F2400 X18.201 Y16.728 E6.25292
G1 X18.808 Y16.2 E6.27967
G1 X19.888 Y15.366 E6.32506
G1 X20.515 Y14.924 E6.35057
G1 X21.502 Y14.303 E6.38936
G1 X22.238 Y13.878 E6.41763
G1 X23.457 Y13.267 E6.46298
G1 X24.123 Y12.97 E6.48723
G1 X25.281 Y12.524 E6.52851
G1 X26.093 Y12.249 E6.55702
G1 X27.324 Y11.912 E6.59947
G1 X28.085 Y11.736 E6.62545
G1 X29.387 Y11.513 E6.66938
G1 X30.418 Y11.378 E6.70397
G1 X32.399 Y11.295 E6.76991
G1 X39.623 Y11.29 E7.01019
G1 X40.606 Y11.305 E7.04288
G1 X41.459 Y11.344 E7.07128
G1 X42.542 Y11.42 E7.10739
G1 X44.203 Y11.68 E7.16331
G1 X45.507 Y11.984 E7.20785
G1 X46.308 Y12.204 E7.23547
G1 X47.537 Y12.621 E7.27864
G1 X48.539 Y13.004 E7.31432
G1 X50.096 Y13.761 E7.3719
G1 X51.252 Y14.43 E7.41632
G1 X52.199 Y15.026 E7.45354
G1 X53.598 Y16.086 E7.51192
G1 X54.623 Y16.986 E7.55729
G1 X55.395 Y17.713 E7.59256
G1 X56.503 Y18.952 E7.64784
G1 X57.408 Y20.127 E7.69717
G1 X57.836 Y20.735 E7.7219
G1 X58.527 Y21.839 E7.76522
G1 X58.892 Y22.477 E7.78966
G1 X59.489 Y23.668 E7.83398
G1 X59.865 Y24.497 E7.86425
G1 X60.048 Y24.972 E7.88118
G1 X60.485 Y26.212 E7.92491
G1 X60.849 Y27.543 E7.97081
G1 X61.022 Y28.297 E7.99654
G1 X61.245 Y29.598 E8.04044
G1 X61.384 Y30.648 E8.07567
G1 X61.465 Y32.619 E8.14128
G1 X61.47 Y51.156 E8.75782
G1 X61.44 Y52.379 E8.79851
G1 X61.357 Y53.534 E8.83702
G1 X61.28 Y54.416 E8.86647
G1 X61.085 Y55.382 E8.89925
G1 X60.734 Y56.941 E8.9524
G1 X60.174 Y58.481 E9.0069
G1 X59.814 Y59.404 E9.03985
G1 X59.038 Y60.851 E9.09446
G1 X58.592 Y61.644 E9.12472
G1 X57.977 Y62.492 E9.15957
G1 X57.028 Y63.742 E9.21176
G1 X55.807 Y64.98 E9.2696
G1 X55.193 Y65.576 E9.29806
G1 X53.824 Y66.617 E9.35526
G1 X53.111 Y67.134 E9.38455
G1 X52.187 Y67.654 E9.41982
G1 X50.853 Y68.369 E9.47016
G1 X49.935 Y68.727 E9.50293
G1 X48.423 Y69.279 E9.55647
G1 X47.389 Y69.519 E9.59177
G1 X45.885 Y69.835 E9.64289
G1 X44.953 Y69.916 E9.674
G1 X43.205 Y70.027 E9.73226
G1 X29.895 Y70.027 E10.17495
G1 X29.19 Y70.017 E10.1984
G1 X28.636 Y69.992 E10.21685
G1 X26.684 Y69.84 E10.28197
G1 X25.071 Y69.501 E10.33679
G1 X24.142 Y69.285 E10.36851
G1 X22.533 Y68.698 E10.42548
G1 X21.684 Y68.367 E10.45578
G1 X20.245 Y67.594 E10.51011
G1 X19.444 Y67.144 E10.54067
G1 X18.602 Y66.532 E10.57529
G1 X17.36 Y65.588 E10.62718
G1 X16.135 Y64.381 E10.68438
G1 X15.513 Y63.739 E10.71411
G1 X14.467 Y62.362 E10.77162
G1 X13.953 Y61.653 E10.80075
G1 X13.174 Y60.25 E10.85412
G1 X12.72 Y59.388 E10.88653
G1 X12.359 Y58.46 E10.91965
G1 X11.815 Y56.966 E10.97253
G1 X11.592 Y56.002 E11.00544
G1 X11.261 Y54.43 E11.05887
G1 X11.178 Y53.462 E11.09118
G1 X11.072 Y51.813 E11.14614
G1 X11.07 Y33.137 E11.76731
G1 X11.085 Y32.155 E11.79997
G1 X11.124 Y31.301 E11.82841
G1 X11.2 Y30.22 E11.86445
G1 X11.46 Y28.557 E11.92043
G1 X11.764 Y27.253 E11.96497
G1 X11.982 Y26.462 E11.99226
G1 X12.422 Y25.17 E12.03765
G1 X12.8 Y24.187 E12.07268
G1 X13.536 Y22.675 E12.12861
G1 X14.209 Y21.512 E12.1733
G1 X14.643 Y20.825 E12.20033
G1 X15.433 Y19.721 E12.24548
G1 X15.881 Y19.149 E12.26965
G1 X16.827 Y18.071 E12.31735
G1 X17.303 Y17.574 E12.34024
M204 S2000
M205 X10 Y10
G1 F2400 E6.34024
G0 F3000 X19.747 Y19.914
M204 S1000
M205 X8 Y8
G1 F2400 E12.34024
G1 X21.031 Y18.751 E12.39786
G1 X22.436 Y17.71 E12.45602
G1 X23.927 Y16.81 E12.51395
G1 X25.524 Y16.049 E12.57278
G1 X27.15 Y15.463 E12.63027
G1 X28.829 Y15.037 E12.68788
G1 X30.538 Y14.777 E12.74538
G1 X32.264 Y14.69 E12.80286
G1 X40.276 Y14.69 E13.06934
G1 X42.005 Y14.776 E13.12692
G1 X43.72 Y15.038 E13.18462
G1 X45.402 Y15.465 E13.24234
G1 X47.043 Y16.058 E13.30037
G1 X48.623 Y16.815 E13.35864
G1 X50.127 Y17.722 E13.41706
G1 X51.534 Y18.776 E13.47553
G1 X52.83 Y19.948 E13.53365
G1 X54.014 Y21.256 E13.59233
G1 X55.052 Y22.659 E13.65037
G1 X55.952 Y24.151 E13.70833
G1 X56.709 Y25.734 E13.76669
G1 X57.296 Y27.366 E13.82437
G1 X57.723 Y29.048 E13.88209
G1 X57.983 Y30.758 E13.93962
G1 X58.07 Y32.484 E13.9971
G1 X58.07 Y51.864 E14.64168
G1 X57.92 Y53.935 E14.71074
G1 X57.471 Y56 E14.78103
G1 X56.734 Y57.974 E14.85111
G1 X55.724 Y59.827 E14.92131
G1 X54.454 Y61.526 E14.99186
G1 X52.969 Y63.011 E15.06171
G1 X51.27 Y64.281 E15.13226
G1 X49.417 Y65.291 E15.20245
G1 X47.443 Y66.028 E15.27253
G1 X45.378 Y66.477 E15.34282
G1 X43.307 Y66.627 E15.41188
G1 X29.233 Y66.627 E15.87998
G1 X27.163 Y66.477 E15.94901
G1 X25.099 Y66.028 E16.01927
G1 X23.123 Y65.291 E16.08941
G1 X21.27 Y64.281 E16.1596
G1 X19.575 Y63.014 E16.22999
G1 X18.084 Y61.522 E16.30014
G1 X16.817 Y59.828 E16.3705
G1 X15.806 Y57.974 E16.44074
G1 X15.069 Y55.995 E16.51098
G1 X14.621 Y53.936 E16.58106
G1 X14.47 Y51.864 E16.65016
G1 X14.47 Y32.484 E17.29474
G1 X14.556 Y30.755 E17.35232
G1 X14.818 Y29.04 E17.41002
G1 X15.245 Y27.358 E17.46774
G1 X15.841 Y25.712 E17.52597
G1 X16.595 Y24.138 E17.58401
G1 X17.501 Y22.636 E17.64235
G1 X18.546 Y21.234 E17.70051
G1 X19.747 Y19.914 E17.75987
M204 S2000
M205 X10 Y10
G0 F3000 X20.014 Y20.213
M204 S1000
M205 X8 Y8
G1 F2400 X20 Y20.227 E17.76053
G1 X18.871 Y21.47 E17.81638
G1 X18.859 Y21.484 E17.81699
G1 X17.839 Y22.852 E17.87375
G1 X17.828 Y22.869 E17.87442
G1 X16.961 Y24.303 E17.93016
G1 X16.952 Y24.319 E17.93077
G1 X16.22 Y25.845 E17.98706
G1 X16.212 Y25.864 E17.98774
G1 X15.632 Y27.458 E18.04416
G1 X15.626 Y27.477 E18.04482
G1 X15.213 Y29.099 E18.10049
G1 X15.209 Y29.118 E18.10114
G1 X14.957 Y30.774 E18.15685
G1 X14.955 Y30.794 E18.15752
G1 X14.87 Y32.471 E18.21337
G1 X14.87 Y51.831 E18.85729
G1 X14.871 Y51.845 E18.85775
G1 X15.015 Y53.862 E18.92501
G1 X15.019 Y53.891 E18.92598
G1 X15.451 Y55.876 E18.99355
G1 X15.459 Y55.903 E18.99449
G1 X16.164 Y57.792 E19.06155
G1 X16.175 Y57.818 E19.06249
G1 X17.15 Y59.602 E19.13011
G1 X17.166 Y59.626 E19.13106
G1 X18.379 Y61.246 E19.19838
G1 X18.397 Y61.267 E19.1993
G1 X19.828 Y62.7 E19.26665
G1 X19.85 Y62.719 E19.26762
G1 X21.471 Y63.932 E19.33496
G1 X21.495 Y63.948 E19.33592
G1 X23.278 Y64.922 E19.40349
G1 X23.304 Y64.933 E19.40443
G1 X25.194 Y65.638 E19.47152
G1 X25.221 Y65.646 E19.47246
G1 X27.207 Y66.079 E19.54007
G1 X27.236 Y66.083 E19.54104
G1 X29.252 Y66.226 E19.60826
G1 X29.266 Y66.227 E19.60873
G1 X43.274 Y66.227 E20.07464
G1 X43.288 Y66.226 E20.0751
G1 X45.305 Y66.083 E20.14236
G1 X45.334 Y66.079 E20.14333
G1 X47.319 Y65.646 E20.2109
G1 X47.346 Y65.638 E20.21184
G1 X49.236 Y64.933 E20.27893
G1 X49.262 Y64.922 E20.27987
G1 X51.045 Y63.948 E20.34745
G1 X51.069 Y63.932 E20.34841
G1 X52.69 Y62.719 E20.41575
G1 X52.711 Y62.7 E20.41669
G1 X54.143 Y61.268 E20.48404
G1 X54.162 Y61.247 E20.48499
G1 X55.375 Y59.626 E20.55232
G1 X55.391 Y59.602 E20.55328
G1 X56.365 Y57.819 E20.62086
G1 X56.376 Y57.793 E20.6218
G1 X57.081 Y55.903 E20.68889
G1 X57.089 Y55.876 E20.68983
G1 X57.522 Y53.891 E20.7574
G1 X57.526 Y53.862 E20.75837
G1 X57.669 Y51.845 E20.82563
G1 X57.67 Y51.831 E20.82609
G1 X57.67 Y32.471 E21.47001
G1 X57.584 Y30.794 E21.52586
G1 X57.582 Y30.774 E21.52653
G1 X57.332 Y29.122 E21.5821
G1 X57.328 Y29.102 E21.58278
G1 X56.912 Y27.474 E21.63867
G1 X56.906 Y27.456 E21.6393
G1 X56.332 Y25.876 E21.69521
G1 X56.324 Y25.858 E21.69586
G1 X55.595 Y24.334 E21.75205
G1 X55.586 Y24.317 E21.75269
G1 X54.712 Y22.868 E21.80898
G1 X54.701 Y22.851 E21.80965
G1 X53.688 Y21.494 E21.86597
G1 X53.676 Y21.48 E21.86659
G1 X52.547 Y20.234 E21.92251
G1 X52.533 Y20.22 E21.92317
G1 X51.288 Y19.09 E21.97909
G1 X51.274 Y19.078 E21.9797
G1 X49.909 Y18.059 E22.03636
G1 X49.892 Y18.048 E22.03703
G1 X48.458 Y17.181 E22.09277
G1 X48.441 Y17.172 E22.09341
G1 X46.91 Y16.438 E22.14988
G1 X46.892 Y16.43 E22.15053
G1 X45.304 Y15.853 E22.20673
G1 X45.285 Y15.847 E22.20739
G1 X43.661 Y15.433 E22.26313
G1 X43.642 Y15.429 E22.26378
G1 X41.982 Y15.176 E22.31963
G1 X41.962 Y15.174 E22.3203
G1 X40.284 Y15.09 E22.37618
G1 X32.256 Y15.09 E22.64319
G1 X30.577 Y15.175 E22.6991
G1 X30.557 Y15.177 E22.69977
G1 X28.903 Y15.428 E22.75542
G1 X28.884 Y15.432 E22.75606
G1 X27.261 Y15.846 E22.81177
G1 X27.242 Y15.852 E22.81243
G1 X25.65 Y16.431 E22.86878
G1 X25.632 Y16.439 E22.86943
G1 X24.114 Y17.165 E22.9254
G1 X24.097 Y17.174 E22.92604
G1 X22.648 Y18.048 E22.98232
G1 X22.631 Y18.059 E22.98299
G1 X21.274 Y19.072 E23.03932
G1 X21.26 Y19.084 E23.03993
G1 X20.014 Y20.213 E23.09585
M204 S2000
M205 X10 Y10
G1 F2400 E17.09585
G0 F3000 X23.829 Y23.696
M204 S1000
M205 X8 Y8
G1 F2400 E23.09585
G1 X25.647 Y22.151 E23.17521
G1 X27.642 Y20.868 E23.2541
G1 X29.806 Y19.857 E23.33354
G1 X32.145 Y19.125 E23.41506
G1 X34.422 Y18.739 E23.49187
G1 X36.822 Y18.652 E23.57175
G1 X39.179 Y18.882 E23.65051
G1 X41.572 Y19.451 E23.73232
G1 X43.734 Y20.281 E23.80935
G1 X45.831 Y21.421 E23.88874
G1 X47.749 Y22.826 E23.96781
G1 X49.474 Y24.484 E24.04739
G1 X50.985 Y26.393 E24.12837
G1 X52.175 Y28.394 E24.2058
G1 X53.112 Y30.588 E24.28515
G1 X53.747 Y32.881 E24.36429
G1 X54.077 Y35.308 E24.44575
G1 X54.076 Y37.694 E24.52511
G1 X53.77 Y39.989 E24.60212
G1 X53.124 Y42.362 E24.68392
G1 X52.222 Y44.493 E24.76088
G1 X51.017 Y46.544 E24.84
G1 X49.54 Y48.424 E24.91952
G1 X47.778 Y50.135 E25.00121
G1 X45.894 Y51.524 E25.07906
G1 X43.753 Y52.697 E25.16026
G1 X41.589 Y53.529 E25.23737
G1 X39.203 Y54.098 E25.31895
G1 X36.911 Y54.328 E25.39557
G1 X34.508 Y54.251 E25.47553
G1 X32.112 Y53.849 E25.55634
G1 X29.892 Y53.161 E25.63364
G1 X27.721 Y52.158 E25.71318
G1 X25.649 Y50.835 E25.79494
G1 X23.908 Y49.363 E25.87077
G1 X22.296 Y47.591 E25.95045
G1 X20.942 Y45.628 E26.02976
G1 X19.861 Y43.506 E26.10897
G1 X19.055 Y41.191 E26.1905
G1 X18.589 Y38.921 E26.26758
G1 X18.424 Y36.546 E26.34676
G1 X18.576 Y34.16 E26.42628
G1 X19.061 Y31.768 E26.50746
G1 X19.817 Y29.576 E26.58458
G1 X20.924 Y27.384 E26.66625
G1 X22.23 Y25.473 E26.74324
G1 X23.829 Y23.696 E26.82275
M204 S2000
M205 X10 Y10
G0 F3000 X24.127 Y23.959
M204 S1000
M205 X8 Y8
G1 F2400 X22.589 Y25.662 E26.89907
G1 X22.572 Y25.682 E26.89994
G1 X21.252 Y27.597 E26.9773
G1 X21.239 Y27.621 E26.97821
G1 X20.211 Y29.652 E27.05392
G1 X20.2 Y29.677 E27.05483
G1 X19.449 Y31.863 E27.13171
G1 X19.442 Y31.888 E27.13257
G1 X18.977 Y34.153 E27.20948
G1 X18.973 Y34.18 E27.21038
G1 X18.822 Y36.487 E27.28728
G1 X18.822 Y36.513 E27.28814
G1 X18.974 Y38.816 E27.36491
G1 X18.978 Y38.843 E27.36582
G1 X19.434 Y41.076 E27.44162
G1 X19.441 Y41.102 E27.44251
G1 X20.208 Y43.311 E27.52029
G1 X20.218 Y43.335 E27.52115
G1 X21.243 Y45.366 E27.59682
G1 X21.257 Y45.389 E27.59772
G1 X22.572 Y47.3 E27.67487
G1 X22.589 Y47.321 E27.67577
G1 X24.139 Y49.039 E27.75273
G1 X24.158 Y49.058 E27.75362
G1 X25.894 Y50.524 E27.8292
G1 X25.915 Y50.54 E27.83007
G1 X27.904 Y51.809 E27.90855
G1 X27.928 Y51.821 E27.90944
G1 X29.979 Y52.773 E27.98465
G1 X30.004 Y52.783 E27.98554
G1 X32.214 Y53.465 E28.06247
G1 X32.24 Y53.471 E28.06335
G1 X34.497 Y53.852 E28.13948
G1 X34.523 Y53.855 E28.14035
G1 X36.852 Y53.937 E28.21787
G1 X36.879 Y53.936 E28.21876
G1 X39.131 Y53.71 E28.29404
G1 X39.158 Y53.706 E28.29495
G1 X41.415 Y53.166 E28.37214
G1 X41.44 Y53.158 E28.37301
G1 X43.639 Y52.314 E28.45135
G1 X43.663 Y52.302 E28.45224
G1 X45.616 Y51.234 E28.52628
G1 X45.639 Y51.22 E28.52717
G1 X47.526 Y49.826 E28.6052
G1 X47.546 Y49.809 E28.60608
G1 X49.186 Y48.229 E28.68182
G1 X49.204 Y48.209 E28.68271
G1 X50.649 Y46.377 E28.76032
G1 X50.664 Y46.355 E28.76121
G1 X51.844 Y44.366 E28.83813
G1 X51.856 Y44.342 E28.83902
G1 X52.745 Y42.24 E28.91493
G1 X52.754 Y42.215 E28.91581
G1 X53.369 Y39.963 E28.99346
G1 X53.374 Y39.937 E28.99434
G1 X53.68 Y37.667 E29.07052
G1 X53.682 Y37.64 E29.07142
G1 X53.683 Y35.345 E29.14775
G1 X53.681 Y35.318 E29.14865
G1 X53.375 Y33.039 E29.22513
G1 X53.37 Y33.013 E29.22601
G1 X52.754 Y30.766 E29.30351
G1 X52.745 Y30.741 E29.30439
G1 X51.862 Y28.649 E29.37991
G1 X51.85 Y28.625 E29.38081
G1 X50.662 Y26.625 E29.45818
G1 X50.647 Y26.603 E29.45906
G1 X49.229 Y24.802 E29.5353
G1 X49.211 Y24.782 E29.5362
G1 X47.549 Y23.179 E29.613
G1 X47.529 Y23.162 E29.61387
G1 X45.647 Y21.772 E29.69169
G1 X45.624 Y21.758 E29.69258
G1 X43.648 Y20.677 E29.7675
G1 X43.624 Y20.665 E29.76839
G1 X41.444 Y19.828 E29.84606
G1 X41.419 Y19.821 E29.84692
G1 X39.169 Y19.282 E29.92387
G1 X39.142 Y19.277 E29.92479
G1 X36.865 Y19.049 E30.0009
G1 X36.838 Y19.048 E30.0018
G1 X34.52 Y19.13 E30.07894
G1 X34.494 Y19.133 E30.07981
G1 X32.246 Y19.512 E30.15564
G1 X32.22 Y19.518 E30.15653
G1 X29.992 Y20.209 E30.23411
G1 X29.967 Y20.219 E30.23501
G1 X27.927 Y21.164 E30.30978
G1 X27.903 Y21.177 E30.31069
G1 X25.913 Y22.45 E30.38926
G1 X25.892 Y22.465 E30.39012
G1 X24.146 Y23.94 E30.46614
G1 X24.127 Y23.959 E30.46704
M204 S2000
M205 X10 Y10
G1 F2400 E24.46704
