;FLAVOR:Marlin
;TIME:1269
;Filament used: 1.15535m
;Layer height: 0.2
;MINX:13.481
;MINY:19.705
;MINZ:0.2
;MAXX:64.68
;MAXY:79.234
;MAXZ:5
;TARGET_MACHINE.NAME:Anycubic Kobra
;Generated with Cura_SteamEngine 5.7.1
M140 S60
M105
M190 S60
M104 S200
M105
M109 S200
M82 ;absolute extrusion mode
G28 ;Home
G1 Z15.0 F1200 ;Move the platform down 15mm
;Prime the extruder
G92 E0
G1 F200 E3
G92 E0
G92 E0
G92 E0
G1 F2400 E-6
;LAYER_COUNT:25
;LAYER:0
M107
M204 S2000
M205 X10 Y10
G0 F3000 X22.041 Y26.2 Z0.2
M204 S1000
M205 X8 Y8
;TYPE:SKIRT
G1 F2400 E0
G1 X20.682 Y27.544 E0.06357
G1 X19.885 Y28.367 E0.10168
G1 X18.754 Y29.791 E0.16216
G1 X17.964 Y30.837 E0.20576
G1 X16.992 Y32.426 E0.26771
G1 X16.372 Y33.499 E0.30893
G1 X15.577 Y35.239 E0.37256
G1 X15.121 Y36.302 E0.41103
G1 X14.562 Y38.057 E0.47229
G1 X14.206 Y39.269 E0.5143
G1 X13.859 Y41.11 E0.57661
G1 X13.665 Y42.28 E0.61606
G1 X13.539 Y44.155 E0.67856
G1 X13.493 Y45.146 E0.71156
G1 X13.482 Y45.851 E0.73501
G1 X13.481 Y59.874 E1.20142
G1 X13.539 Y61.111 E1.2426
G1 X13.675 Y62.829 E1.29992
G1 X14.029 Y64.529 E1.35768
G1 X14.254 Y65.496 E1.3907
G1 X14.564 Y66.375 E1.4217
G1 X15.218 Y68.09 E1.48275
G1 X15.969 Y69.492 E1.53565
G1 X16.536 Y70.492 E1.57388
G1 X17.041 Y71.188 E1.60248
G1 X18.128 Y72.623 E1.66236
G1 X19.347 Y73.863 E1.72019
G1 X20.061 Y74.556 E1.75329
G1 X20.869 Y75.182 E1.78728
G1 X22.275 Y76.215 E1.84531
G1 X23.123 Y76.692 E1.87767
G1 X24.615 Y77.49 E1.93395
G1 X26.194 Y78.097 E1.99021
G1 X27.194 Y78.453 E2.02552
G1 X28.018 Y78.648 E2.05368
G1 X29.89 Y79.041 E2.1173
G1 X32.152 Y79.216 E2.19276
G1 X33.198 Y79.234 E2.22756
G1 X45.318 Y79.234 E2.63067
G1 X46.499 Y79.179 E2.66999
G1 X48.279 Y79.04 E2.72938
G1 X49.952 Y78.692 E2.78621
G1 X50.949 Y78.459 E2.82026
G1 X51.836 Y78.145 E2.85156
G1 X53.452 Y77.53 E2.90907
G1 X54.307 Y77.087 E2.9411
G1 X55.898 Y76.206 E3.00159
G1 X57.294 Y75.179 E3.05923
G1 X58.082 Y74.571 E3.09233
G1 X58.787 Y73.889 E3.12496
G1 X59.993 Y72.665 E3.18211
G1 X60.567 Y71.925 E3.21326
G1 X61.67 Y70.424 E3.27521
G1 X62.462 Y68.994 E3.32958
G1 X62.943 Y68.08 E3.36393
G1 X63.28 Y67.224 E3.39453
G1 X63.909 Y65.489 E3.45591
G1 X64.103 Y64.655 E3.48439
G1 X64.483 Y62.84 E3.54607
G1 X64.561 Y61.932 E3.57638
G1 X64.649 Y60.707 E3.61723
G1 X64.679 Y59.545 E3.65589
G1 X64.68 Y46.016 E4.10586
G1 X64.666 Y45.113 E4.1359
G1 X64.57 Y43.337 E4.19506
G1 X64.478 Y42.139 E4.23502
G1 X64.158 Y40.327 E4.29622
G1 X63.909 Y39.098 E4.33793
G1 X63.698 Y38.374 E4.36301
G1 X63.321 Y37.171 E4.40494
G1 X62.99 Y36.175 E4.43985
G1 X62.207 Y34.404 E4.50425
G1 X61.693 Y33.314 E4.54433
G1 X60.759 Y31.747 E4.60501
G1 X60.092 Y30.685 E4.64672
G1 X58.951 Y29.21 E4.70874
G1 X58.185 Y28.268 E4.74913
G1 X56.851 Y26.918 E4.81225
G1 X56 Y26.095 E4.85163
G1 X54.533 Y24.931 E4.91391
G1 X53.513 Y24.163 E4.95638
G1 X51.871 Y23.162 E5.02034
G1 X50.913 Y22.605 E5.0572
G1 X49.151 Y21.801 E5.12161
G1 X48.095 Y21.347 E5.15985
G1 X46.355 Y20.79 E5.22061
G1 X45.109 Y20.425 E5.2638
G1 X43.306 Y20.084 E5.32483
G1 X42.106 Y19.886 E5.36528
G1 X41.277 Y19.822 E5.39293
G1 X40.217 Y19.759 E5.42825
G1 X39.015 Y19.705 E5.46827
G1 X37.154 Y19.806 E5.53026
G1 X35.917 Y19.901 E5.57152
G1 X34.041 Y20.233 E5.63489
G1 X32.871 Y20.47 E5.67459
G1 X31.085 Y21.015 E5.7367
G1 X29.943 Y21.394 E5.77672
G1 X28.133 Y22.194 E5.84254
G1 X27.131 Y22.666 E5.87938
G1 X25.537 Y23.616 E5.9411
G1 X24.484 Y24.277 E5.98245
G1 X22.967 Y25.449 E6.04621
G1 X22.041 Y26.2 E6.08586
M204 S2000
M205 X10 Y10
G0 F3000 X22.293 Y26.511
M204 S1000
M205 X8 Y8
G1 F2400 X23.212 Y25.765 E6.12523
G1 X24.697 Y24.616 E6.18768
G1 X25.742 Y23.959 E6.22874
G1 X27.302 Y23.028 E6.28916
G1 X28.295 Y22.56 E6.32567
G1 X30.069 Y21.774 E6.39021
G1 X31.202 Y21.397 E6.42992
G1 X32.95 Y20.862 E6.49072
G1 X34.111 Y20.627 E6.53012
G1 X35.948 Y20.3 E6.59218
G1 X37.176 Y20.205 E6.63314
G1 X38.997 Y20.105 E6.6938
G1 X40.193 Y20.158 E6.73362
G1 X41.247 Y20.221 E6.76874
G1 X42.041 Y20.281 E6.79522
G1 X43.232 Y20.477 E6.83537
G1 X44.997 Y20.809 E6.8951
G1 X46.233 Y21.171 E6.93794
G1 X47.937 Y21.715 E6.99743
G1 X48.985 Y22.165 E7.03537
G1 X50.712 Y22.951 E7.09848
G1 X51.663 Y23.504 E7.13507
G1 X53.305 Y24.505 E7.19903
G1 X54.285 Y25.245 E7.23987
G1 X55.722 Y26.383 E7.30084
G1 X56.567 Y27.199 E7.33991
G1 X57.875 Y28.52 E7.40174
G1 X58.635 Y29.455 E7.44181
G1 X59.753 Y30.898 E7.50253
G1 X60.415 Y31.952 E7.54392
G1 X61.349 Y33.519 E7.6046
G1 X61.841 Y34.566 E7.64308
G1 X62.61 Y36.301 E7.7062
G1 X62.939 Y37.291 E7.74089
G1 X63.314 Y38.487 E7.78258
G1 X63.517 Y39.177 E7.80651
G1 X63.764 Y40.397 E7.84791
G1 X64.079 Y42.17 E7.9078
G1 X64.171 Y43.359 E7.94746
G1 X64.266 Y45.119 E8.00609
G1 X64.28 Y46.016 E8.03593
G1 X64.279 Y59.535 E8.48557
G1 X64.25 Y60.678 E8.5236
G1 X64.162 Y61.898 E8.56428
G1 X64.084 Y62.806 E8.59459
G1 X63.713 Y64.564 E8.65435
G1 X63.519 Y65.398 E8.68283
G1 X62.907 Y67.079 E8.74233
G1 X62.589 Y67.894 E8.77143
G1 X62.112 Y68.8 E8.80548
G1 X61.32 Y70.23 E8.85985
G1 X60.25 Y71.681 E8.91982
G1 X59.708 Y72.384 E8.94934
G1 X58.508 Y73.602 E9.00621
G1 X57.838 Y74.254 E9.0373
G1 X57.056 Y74.857 E9.07015
G1 X55.704 Y75.856 E9.12606
G1 X54.122 Y76.732 E9.18621
G1 X53.31 Y77.156 E9.21667
G1 X51.702 Y77.768 E9.2739
G1 X50.858 Y78.069 E9.3037
G1 X49.861 Y78.302 E9.33775
G1 X48.248 Y78.641 E9.39258
G1 X46.48 Y78.779 E9.45156
G1 X45.299 Y78.834 E9.49088
G1 X33.205 Y78.834 E9.89313
G1 X32.183 Y78.817 E9.92713
G1 X29.921 Y78.642 E10.00258
G1 X28.109 Y78.259 E10.06418
G1 X27.328 Y78.076 E10.09086
G1 X26.337 Y77.723 E10.12585
G1 X24.804 Y77.137 E10.18044
G1 X23.319 Y76.343 E10.23645
G1 X22.471 Y75.866 E10.26881
G1 X21.113 Y74.865 E10.32492
G1 X20.34 Y74.269 E10.35738
G1 X19.632 Y73.582 E10.3902
G1 X18.447 Y72.381 E10.44631
G1 X17.365 Y70.953 E10.5059
G1 X16.86 Y70.257 E10.5345
G1 X16.322 Y69.303 E10.57093
G1 X15.571 Y67.901 E10.62383
G1 X14.941 Y66.241 E10.68288
G1 X14.644 Y65.405 E10.71239
G1 X14.419 Y64.438 E10.74541
G1 X14.074 Y62.797 E10.80119
G1 X13.939 Y61.092 E10.85807
G1 X13.881 Y59.874 E10.89863
G1 X13.882 Y45.857 E11.36484
G1 X13.893 Y45.164 E11.38789
G1 X13.938 Y44.182 E11.42059
G1 X14.06 Y42.345 E11.48182
G1 X14.252 Y41.184 E11.52096
G1 X14.59 Y39.382 E11.58194
G1 X14.943 Y38.178 E11.62367
G1 X15.502 Y36.423 E11.68493
G1 X15.941 Y35.405 E11.7218
G1 X16.736 Y33.665 E11.78543
G1 X17.333 Y32.634 E11.82506
G1 X18.283 Y31.078 E11.88569
G1 X19.067 Y30.04 E11.92896
G1 X20.173 Y28.645 E11.98817
G1 X20.963 Y27.828 E12.02597
G1 X22.293 Y26.511 E12.08822
M204 S2000
M205 X10 Y10
G1 F2400 E6.08822
G0 F3000 X24.613 Y28.986
M204 S1000
M205 X8 Y8
G1 F2400 E12.08822
G1 X26.694 Y27.355 E12.17616
G1 X28.952 Y25.993 E12.26387
G1 X31.344 Y24.916 E12.35112
G1 X33.865 Y24.128 E12.43897
G1 X36.453 Y23.655 E12.52647
G1 X39.08 Y23.497 E12.614
G1 X41.707 Y23.655 E12.70153
G1 X44.295 Y24.128 E12.78904
G1 X46.816 Y24.916 E12.87689
G1 X49.208 Y25.993 E12.96414
G1 X51.466 Y27.355 E13.05184
G1 X53.547 Y28.986 E13.13978
G1 X55.397 Y30.836 E13.2268
G1 X57.02 Y32.905 E13.31426
G1 X58.385 Y35.169 E13.40219
G1 X59.461 Y37.562 E13.48946
G1 X60.25 Y40.083 E13.57732
G1 X60.723 Y42.67 E13.66479
G1 X60.88 Y45.268 E13.75136
G1 X60.88 Y60.171 E14.24703
G1 X60.724 Y62.315 E14.31853
G1 X60.261 Y64.442 E14.39093
G1 X59.499 Y66.489 E14.46358
G1 X58.454 Y68.406 E14.5362
G1 X57.141 Y70.161 E14.6091
G1 X55.606 Y71.696 E14.6813
G1 X53.85 Y73.009 E14.75422
G1 X51.935 Y74.051 E14.82674
G1 X49.889 Y74.816 E14.89939
G1 X47.761 Y75.279 E14.97182
G1 X45.617 Y75.434 E15.04332
G1 X32.543 Y75.434 E15.47816
G1 X30.401 Y75.279 E15.54959
G1 X28.268 Y74.815 E15.62219
G1 X26.225 Y74.053 E15.69471
G1 X24.31 Y73.009 E15.76726
G1 X22.557 Y71.699 E15.84004
G1 X21.016 Y70.157 E15.91255
G1 X19.706 Y68.406 E15.98529
G1 X18.661 Y66.489 E16.0579
G1 X17.899 Y64.442 E16.13055
G1 X17.436 Y62.315 E16.20295
G1 X17.28 Y60.171 E16.27445
G1 X17.282 Y45.211 E16.77202
G1 X17.437 Y42.67 E16.85669
G1 X17.91 Y40.083 E16.94416
G1 X18.699 Y37.562 E17.03202
G1 X19.775 Y35.169 E17.11929
G1 X21.14 Y32.905 E17.20722
G1 X22.763 Y30.836 E17.29468
G1 X24.613 Y28.986 E17.3817
M204 S2000
M205 X10 Y10
G0 F3000 X24.882 Y29.287
M204 S1000
M205 X8 Y8
G1 F2400 X23.066 Y31.104 E17.46714
G1 X23.05 Y31.122 E17.46794
G1 X21.479 Y33.127 E17.55266
G1 X21.465 Y33.147 E17.55347
G1 X20.135 Y35.347 E17.63898
G1 X20.124 Y35.368 E17.63977
G1 X19.074 Y37.701 E17.72486
G1 X19.065 Y37.723 E17.72565
G1 X18.305 Y40.161 E17.81059
G1 X18.299 Y40.185 E17.81141
G1 X17.837 Y42.71 E17.89678
G1 X17.834 Y42.734 E17.89759
G1 X17.68 Y45.266 E17.98196
G1 X17.68 Y60.138 E18.4766
G1 X17.681 Y60.152 E18.47707
G1 X17.83 Y62.24 E18.54669
G1 X17.834 Y62.268 E18.54764
G1 X18.281 Y64.324 E18.61762
G1 X18.289 Y64.352 E18.61858
G1 X19.019 Y66.307 E18.68799
G1 X19.03 Y66.333 E18.68893
G1 X20.039 Y68.18 E18.75893
G1 X20.055 Y68.204 E18.75989
G1 X21.311 Y69.882 E18.82961
G1 X21.33 Y69.903 E18.83055
G1 X22.811 Y71.385 E18.90023
G1 X22.832 Y71.404 E18.90117
G1 X24.511 Y72.66 E18.97091
G1 X24.535 Y72.676 E18.97187
G1 X26.38 Y73.684 E19.0418
G1 X26.406 Y73.695 E19.04274
G1 X28.363 Y74.425 E19.11221
G1 X28.39 Y74.433 E19.11315
G1 X30.445 Y74.881 E19.1831
G1 X30.474 Y74.885 E19.18407
G1 X32.562 Y75.033 E19.2537
G1 X32.576 Y75.034 E19.25416
G1 X45.584 Y75.034 E19.68681
G1 X45.598 Y75.033 E19.68728
G1 X47.686 Y74.885 E19.7569
G1 X47.715 Y74.881 E19.75787
G1 X49.769 Y74.433 E19.8278
G1 X49.796 Y74.425 E19.82873
G1 X51.752 Y73.695 E19.89817
G1 X51.778 Y73.684 E19.89911
G1 X53.625 Y72.676 E19.9691
G1 X53.649 Y72.66 E19.97005
G1 X55.327 Y71.404 E20.03977
G1 X55.348 Y71.385 E20.04071
G1 X56.83 Y69.903 E20.11042
G1 X56.849 Y69.882 E20.11136
G1 X58.105 Y68.204 E20.18107
G1 X58.121 Y68.18 E20.18203
G1 X59.13 Y66.333 E20.25203
G1 X59.141 Y66.307 E20.25297
G1 X59.871 Y64.352 E20.32238
G1 X59.879 Y64.324 E20.32335
G1 X60.326 Y62.268 E20.39333
G1 X60.33 Y62.24 E20.39427
G1 X60.479 Y60.152 E20.46389
G1 X60.48 Y60.138 E20.46436
G1 X60.48 Y45.266 E20.95901
G1 X60.326 Y42.734 E21.04338
G1 X60.323 Y42.71 E21.04418
G1 X59.861 Y40.185 E21.12956
G1 X59.855 Y40.161 E21.13038
G1 X59.095 Y37.723 E21.21532
G1 X59.086 Y37.701 E21.21611
G1 X58.036 Y35.368 E21.3012
G1 X58.025 Y35.347 E21.30199
G1 X56.695 Y33.147 E21.38749
G1 X56.681 Y33.127 E21.3883
G1 X55.11 Y31.122 E21.47302
G1 X55.094 Y31.104 E21.47382
G1 X53.278 Y29.287 E21.55927
G1 X53.26 Y29.271 E21.56007
G1 X51.239 Y27.689 E21.64543
G1 X51.22 Y27.675 E21.64622
G1 X49.038 Y26.355 E21.73104
G1 X49.016 Y26.344 E21.73186
G1 X46.677 Y25.291 E21.81717
G1 X46.654 Y25.282 E21.81799
G1 X44.216 Y24.523 E21.90292
G1 X44.193 Y24.517 E21.90371
G1 X41.668 Y24.055 E21.98909
G1 X41.644 Y24.052 E21.98989
G1 X39.092 Y23.896 E22.07493
G1 X39.068 Y23.896 E22.07573
G1 X36.516 Y24.052 E22.16077
G1 X36.492 Y24.055 E22.16157
G1 X33.967 Y24.517 E22.24695
G1 X33.944 Y24.523 E22.24774
G1 X31.506 Y25.282 E22.33266
G1 X31.483 Y25.291 E22.33348
G1 X29.144 Y26.344 E22.4188
G1 X29.122 Y26.355 E22.41962
G1 X26.94 Y27.675 E22.50444
G1 X26.921 Y27.689 E22.50522
G1 X24.9 Y29.271 E22.59059
G1 X24.882 Y29.287 E22.59139
M204 S2000
M205 X10 Y10
G1 F2400 E16.59139
G0 F3000 X29.353 Y32.785
M204 S1000
M205 X8 Y8
G1 F2400 E22.59139
G1 X31.12 Y31.595 E22.66224
G1 X33.117 Y30.617 E22.7362
G1 X35.213 Y29.931 E22.80955
G1 X37.455 Y29.534 E22.88528
G1 X39.604 Y29.459 E22.9568
G1 X41.866 Y29.698 E23.03246
G1 X44.009 Y30.236 E23.10594
G1 X45.999 Y31.041 E23.17734
G1 X47.908 Y32.137 E23.25056
G1 X49.66 Y33.501 E23.32441
G1 X51.197 Y35.085 E23.39781
G1 X52.539 Y36.93 E23.4737
G1 X53.542 Y38.821 E23.54489
G1 X54.302 Y40.894 E23.61833
G1 X54.778 Y43.13 E23.69436
G1 X54.927 Y45.262 E23.76545
G1 X54.779 Y47.463 E23.83882
G1 X54.302 Y49.701 E23.91492
G1 X53.542 Y51.774 E23.98836
G1 X52.539 Y53.664 E24.05953
G1 X51.196 Y55.51 E24.13545
G1 X49.703 Y57.056 E24.20694
G1 X47.974 Y58.413 E24.28004
G1 X46.051 Y59.53 E24.35401
G1 X44.012 Y60.358 E24.4272
G1 X41.865 Y60.897 E24.50083
G1 X39.604 Y61.136 E24.57645
G1 X37.454 Y61.06 E24.648
G1 X35.275 Y60.68 E24.72157
G1 X33.18 Y60.003 E24.7948
G1 X31.123 Y59.001 E24.8709
G1 X29.35 Y57.807 E24.94199
G1 X27.707 Y56.332 E25.01543
G1 X26.273 Y54.63 E25.08945
G1 X25.107 Y52.773 E25.16238
G1 X24.197 Y50.74 E25.23647
G1 X23.588 Y48.634 E25.30938
G1 X23.275 Y46.432 E25.38336
G1 X23.27 Y44.227 E25.4567
G1 X23.588 Y41.962 E25.53277
G1 X24.174 Y39.914 E25.60362
G1 X25.073 Y37.888 E25.67734
G1 X26.24 Y36.01 E25.75088
G1 X27.705 Y34.265 E25.82666
G1 X29.353 Y32.785 E25.90033
M204 S2000
M205 X10 Y10
G0 F3000 X29.583 Y33.116
M204 S1000
M205 X8 Y8
G1 F2400 X29.561 Y33.133 E25.90126
G1 X27.974 Y34.563 E25.97231
G1 X27.955 Y34.583 E25.97323
G1 X26.596 Y36.2 E26.04348
G1 X26.579 Y36.223 E26.04443
G1 X25.448 Y38.034 E26.11545
G1 X25.435 Y38.058 E26.11636
G1 X24.558 Y40.023 E26.18793
G1 X24.549 Y40.05 E26.18887
G1 X23.974 Y42.055 E26.25825
G1 X23.968 Y42.082 E26.25917
G1 X23.672 Y44.205 E26.33046
G1 X23.67 Y44.233 E26.33139
G1 X23.67 Y46.363 E26.40224
G1 X23.672 Y46.391 E26.40317
G1 X23.967 Y48.508 E26.47426
G1 X23.973 Y48.535 E26.47518
G1 X24.549 Y50.545 E26.54473
G1 X24.558 Y50.572 E26.54567
G1 X25.435 Y52.537 E26.61724
G1 X25.448 Y52.561 E26.61815
G1 X26.578 Y54.37 E26.68909
G1 X26.595 Y54.393 E26.69005
G1 X27.954 Y56.011 E26.76032
G1 X27.973 Y56.031 E26.76124
G1 X29.56 Y57.461 E26.83229
G1 X29.582 Y57.478 E26.83322
G1 X31.341 Y58.665 E26.9038
G1 X31.366 Y58.679 E26.90475
G1 X33.295 Y59.617 E26.97609
G1 X33.32 Y59.627 E26.97699
G1 X35.319 Y60.278 E27.04691
G1 X35.346 Y60.285 E27.04784
G1 X37.455 Y60.656 E27.11906
G1 X37.483 Y60.659 E27.12
G1 X39.607 Y60.736 E27.19069
G1 X39.635 Y60.735 E27.19162
G1 X41.751 Y60.51 E27.2624
G1 X41.778 Y60.505 E27.26331
G1 X43.854 Y59.989 E27.33446
G1 X43.881 Y59.98 E27.33541
G1 X45.831 Y59.194 E27.40533
G1 X45.856 Y59.182 E27.40626
G1 X47.693 Y58.118 E27.47686
G1 X47.716 Y58.103 E27.47778
G1 X49.408 Y56.781 E27.54919
G1 X49.429 Y56.762 E27.55013
G1 X50.898 Y55.24 E27.62049
G1 X50.916 Y55.219 E27.62141
G1 X52.172 Y53.494 E27.69238
G1 X52.187 Y53.47 E27.69332
G1 X53.191 Y51.579 E27.76453
G1 X53.202 Y51.553 E27.76547
G1 X53.919 Y49.582 E27.83523
G1 X53.927 Y49.556 E27.83613
G1 X54.372 Y47.463 E27.9073
G1 X54.376 Y47.435 E27.90824
G1 X54.525 Y45.281 E27.98006
G1 X54.524 Y45.253 E27.98099
G1 X54.375 Y43.161 E28.05075
G1 X54.372 Y43.133 E28.05168
G1 X53.927 Y41.038 E28.12292
G1 X53.919 Y41.012 E28.12382
G1 X53.202 Y39.042 E28.19355
G1 X53.191 Y39.016 E28.19449
G1 X52.188 Y37.126 E28.26565
G1 X52.173 Y37.102 E28.26659
G1 X50.917 Y35.376 E28.33759
G1 X50.899 Y35.355 E28.33851
G1 X49.431 Y33.836 E28.40877
G1 X49.41 Y33.817 E28.40971
G1 X47.712 Y32.49 E28.48139
G1 X47.689 Y32.475 E28.4823
G1 X45.856 Y31.413 E28.55276
G1 X45.831 Y31.401 E28.55369
G1 X43.881 Y30.615 E28.62361
G1 X43.854 Y30.606 E28.62456
G1 X41.778 Y30.09 E28.69571
G1 X41.751 Y30.085 E28.69662
G1 X39.635 Y29.86 E28.7674
G1 X39.607 Y29.859 E28.76833
G1 X37.483 Y29.936 E28.83902
G1 X37.455 Y29.939 E28.83996
G1 X35.346 Y30.31 E28.91118
G1 X35.319 Y30.317 E28.91211
G1 X33.32 Y30.968 E28.98203
G1 X33.295 Y30.978 E28.98293
G1 X31.366 Y31.916 E29.05427
G1 X31.341 Y31.93 E29.05522
G1 X29.583 Y33.116 E29.12575
M204 S2000
M205 X10 Y10
G1 F2400 E23.12575
;MESH:display case prototype_V2.stl
G0 F3000 X37.431 Y61.295
G0 X37.321 Y62.357
G0 X39.597 Y62.936
G0 X39.621 Y62.236
M204 S1000
M205 X8 Y8
;TYPE:WALL-OUTER
G1 F2400 E29.12575
G1 F1500 X37.268 Y62.153 E29.20406
G1 X34.998 Y61.747 E29.28076
G1 X32.706 Y61 E29.36094
G1 X30.645 Y59.999 E29.43715
G1 X28.68 Y58.68 E29.51586
G1 X26.854 Y57.037 E29.59756
G1 X25.394 Y55.297 E29.67311
G1 X24.089 Y53.206 E29.75509
G1 X23.147 Y51.087 E29.83222
G1 X22.489 Y48.768 E29.91239
G1 X22.169 Y46.46 E29.98989
G1 X22.172 Y44.076 E30.06918
G1 X22.515 Y41.692 E30.14929
G1 X23.165 Y39.458 E30.22668
G1 X24.1 Y37.364 E30.30295
G1 X25.394 Y35.295 E30.38412
G1 X26.866 Y33.542 E30.46025
G1 X28.672 Y31.918 E30.54103
G1 X30.588 Y30.628 E30.61786
G1 X32.757 Y29.565 E30.6982
G1 X34.961 Y28.854 E30.77522
G1 X37.325 Y28.438 E30.85506
G1 X39.641 Y28.356 E30.93214
G1 X42.001 Y28.601 E31.01105
G1 X44.341 Y29.185 E31.09127
G1 X46.531 Y30.073 E31.16987
G1 X48.524 Y31.22 E31.24635
G1 X50.4 Y32.684 E31.32549
