;FLAVOR:Marlin
;TIME:1431
;Filament used: 1.27328m
;Layer height: 0.2
;MINX:17.253
;MINY:16.154
;MINZ:0.2
;MAXX:68.452
;MAXY:75.682
;MAXZ:5.4
;TARGET_MACHINE.NAME:Anycubic Kobra
;Generated with Cura_SteamEngine 5.7.1
M140 S60
M105
M190 S60
M104 S200
M105
M109 S200
M82 ;absolute extrusion mode
G28 ;Home
G1 Z15.0 F1200 ;Move the platform down 15mm
;Prime the extruder
G92 E0
G1 F200 E3
G92 E0
G92 E0
G92 E0
G1 F2400 E-6
;LAYER_COUNT:27
;LAYER:0
M107
M204 S2000
M205 X10 Y10
G0 F3000 X24.451 Y23.996 Z0.2
M204 S1000
M205 X8 Y8
;TYPE:SKIRT
G1 F2400 E0
G1 X25.819 Y22.644 E0.06397
G1 X26.714 Y21.916 E0.10234
G1 X28.262 Y20.719 E0.16743
G1 X29.198 Y20.131 E0.20419
G1 X30.904 Y19.114 E0.27025
G1 X31.962 Y18.616 E0.30914
G1 X33.722 Y17.837 E0.37316
G1 X34.725 Y17.504 E0.40831
G1 X35.928 Y17.127 E0.45024
G1 X36.65 Y16.916 E0.47526
G1 X37.883 Y16.667 E0.5171
G1 X39.688 Y16.349 E0.57806
G1 X40.943 Y16.253 E0.61992
G1 X42.793 Y16.154 E0.68154
G1 X43.963 Y16.204 E0.72049
G1 X45.875 Y16.332 E0.78422
G1 X47.061 Y16.528 E0.82421
G1 X48.893 Y16.874 E0.88621
G1 X50.092 Y17.226 E0.92778
G1 X51.838 Y17.783 E0.98873
G1 X52.952 Y18.261 E1.02905
G1 X54.692 Y19.057 E1.09269
G1 X55.68 Y19.631 E1.1307
G1 X57.308 Y20.626 E1.19416
G1 X58.346 Y21.411 E1.23744
G1 X59.779 Y22.548 E1.29828
G1 X60.6 Y23.341 E1.33625
G1 X61.417 Y24.16 E1.37472
G1 X61.976 Y24.74 E1.40152
G1 X62.698 Y25.627 E1.43956
G1 X63.38 Y26.497 E1.47632
G1 X63.854 Y27.121 E1.50239
G1 X64.477 Y28.109 E1.54123
G1 X65.488 Y29.806 E1.60693
G1 X65.985 Y30.864 E1.64581
G1 X66.757 Y32.607 E1.70922
G1 X67.093 Y33.618 E1.74465
G1 X67.47 Y34.821 E1.78658
G1 X67.681 Y35.543 E1.8116
G1 X67.93 Y36.775 E1.85341
G1 X68.249 Y38.584 E1.9145
G1 X68.343 Y39.807 E1.9553
G1 X68.438 Y41.561 E2.01372
G1 X68.452 Y42.464 E2.04376
G1 X68.451 Y55.993 E2.49374
G1 X68.421 Y57.155 E2.5324
G1 X68.333 Y58.379 E2.57321
G1 X68.254 Y59.295 E2.60379
G1 X67.903 Y60.98 E2.66104
G1 X67.667 Y61.985 E2.69537
G1 X67.07 Y63.625 E2.75342
G1 X66.707 Y64.546 E2.78635
G1 X65.899 Y66.057 E2.84334
G1 X65.436 Y66.88 E2.87475
G1 X64.34 Y68.371 E2.93629
G1 X63.783 Y69.088 E2.96649
G1 X63.035 Y69.86 E3.00224
G1 X61.847 Y71.027 E3.05763
G1 X60.405 Y72.121 E3.11783
G1 X59.709 Y72.626 E3.14644
G1 X58.709 Y73.193 E3.18467
G1 X57.309 Y73.943 E3.23749
G1 X55.591 Y74.598 E3.29865
G1 X54.736 Y74.902 E3.32883
G1 X52.952 Y75.305 E3.38966
G1 X52.036 Y75.488 E3.42073
G1 X50.329 Y75.623 E3.47768
G1 X49.092 Y75.681 E3.51887
G1 X37.012 Y75.682 E3.92065
G1 X35.779 Y75.651 E3.96167
G1 X34.552 Y75.562 E4.00259
G1 X33.584 Y75.475 E4.03492
G1 X31.829 Y75.105 E4.09457
G1 X30.996 Y74.911 E4.12302
G1 X29.31 Y74.3 E4.18266
G1 X28.395 Y73.94 E4.21537
G1 X27.569 Y73.506 E4.2464
G1 X26.062 Y72.671 E4.3037
G1 X24.568 Y71.575 E4.36533
G1 X23.829 Y71.002 E4.39644
G1 X22.535 Y69.726 E4.45688
G1 X21.901 Y69.069 E4.48725
G1 X20.794 Y67.608 E4.54821
G1 X20.26 Y66.866 E4.57862
G1 X19.449 Y65.402 E4.63428
G1 X18.977 Y64.501 E4.66811
G1 X18.606 Y63.548 E4.70213
G1 X18.05 Y62.029 E4.75593
G1 X17.817 Y61.043 E4.78963
G1 X17.447 Y59.274 E4.84974
G1 X17.311 Y57.553 E4.90716
G1 X17.253 Y56.322 E4.94814
G1 X17.254 Y42.299 E5.41455
G1 X17.265 Y41.594 E5.438
G1 X17.311 Y40.605 E5.47093
G1 X17.437 Y38.724 E5.53363
G1 X17.629 Y37.568 E5.57261
G1 X17.981 Y35.706 E5.63564
G1 X18.333 Y34.505 E5.67726
G1 X18.89 Y32.758 E5.73825
G1 X19.346 Y31.693 E5.77678
G1 X20.166 Y29.9 E5.84236
G1 X20.696 Y28.988 E5.87744
G1 X21.743 Y27.275 E5.94422
G1 X22.5 Y26.272 E5.98601
G1 X23.655 Y24.819 E6.04775
G1 X24.451 Y23.996 E6.08583
M204 S2000
M205 X10 Y10
G0 F3000 X24.732 Y24.28
M204 S1000
M205 X8 Y8
G1 F2400 X26.071 Y22.954 E6.14851
G1 X26.959 Y22.232 E6.18657
G1 X28.475 Y21.058 E6.25034
G1 X29.403 Y20.474 E6.28681
G1 X31.074 Y19.476 E6.35155
G1 X32.124 Y18.982 E6.39014
G1 X33.848 Y18.217 E6.45288
G1 X34.845 Y17.886 E6.48782
G1 X36.041 Y17.511 E6.52951
G1 X36.729 Y17.308 E6.55336
G1 X37.953 Y17.061 E6.59489
G1 X39.719 Y16.748 E6.65455
G1 X40.965 Y16.652 E6.69611
G1 X42.776 Y16.554 E6.75643
G1 X43.937 Y16.603 E6.79508
G1 X45.81 Y16.727 E6.85752
G1 X46.987 Y16.921 E6.89719
G1 X48.78 Y17.258 E6.95787
G1 X49.97 Y17.607 E6.99912
G1 X51.716 Y18.164 E7.06007
G1 X52.786 Y18.625 E7.09882
G1 X54.491 Y19.403 E7.16116
G1 X55.472 Y19.972 E7.19888
G1 X57.067 Y20.945 E7.26102
G1 X58.098 Y21.725 E7.30402
G1 X59.501 Y22.836 E7.36354
G1 X60.317 Y23.624 E7.40127
G1 X61.13 Y24.438 E7.43953
G1 X61.666 Y24.992 E7.46517
G1 X62.383 Y25.874 E7.50298
G1 X63.061 Y26.739 E7.53953
G1 X63.535 Y27.363 E7.5656
G1 X64.134 Y28.314 E7.60298
G1 X65.126 Y29.976 E7.66736
G1 X65.619 Y31.026 E7.70594
G1 X66.377 Y32.733 E7.76806
G1 X66.711 Y33.738 E7.80328
G1 X67.086 Y34.934 E7.84497
G1 X67.289 Y35.622 E7.86883
G1 X67.536 Y36.845 E7.91033
G1 X67.85 Y38.615 E7.97012
G1 X67.944 Y39.829 E8.01061
G1 X68.038 Y41.567 E8.06851
G1 X68.052 Y42.464 E8.09834
G1 X68.051 Y55.983 E8.54799
G1 X68.022 Y57.126 E8.58602
G1 X67.934 Y58.345 E8.62667
G1 X67.855 Y59.261 E8.65724
G1 X67.513 Y60.89 E8.71261
G1 X67.291 Y61.848 E8.74531
G1 X66.697 Y63.479 E8.80305
G1 X66.354 Y64.357 E8.8344
G1 X65.55 Y65.861 E8.89112
G1 X65.087 Y66.684 E8.92253
G1 X64.023 Y68.127 E8.98216
G1 X63.496 Y68.81 E9.01085
G1 X62.754 Y69.575 E9.0463
G1 X61.605 Y70.708 E9.09997
G1 X60.17 Y71.797 E9.15988
G1 X59.474 Y72.302 E9.18849
G1 X58.52 Y72.84 E9.22491
G1 X57.12 Y73.59 E9.27774
G1 X55.457 Y74.221 E9.3369
G1 X54.602 Y74.525 E9.36708
G1 X52.873 Y74.913 E9.42602
G1 X52.004 Y75.089 E9.45551
G1 X50.31 Y75.223 E9.51202
G1 X49.092 Y75.281 E9.55258
G1 X37.022 Y75.282 E9.95403
G1 X35.808 Y75.252 E9.99442
G1 X34.587 Y75.164 E10.03514
G1 X33.667 Y75.084 E10.06585
G1 X31.92 Y74.715 E10.12524
G1 X31.087 Y74.521 E10.15369
G1 X29.455 Y73.927 E10.21145
G1 X28.581 Y73.586 E10.24265
G1 X27.763 Y73.156 E10.27339
G1 X26.256 Y72.321 E10.33069
G1 X24.812 Y71.258 E10.39033
G1 X24.11 Y70.717 E10.41981
G1 X22.822 Y69.447 E10.47997
G1 X22.22 Y68.827 E10.50871
G1 X21.118 Y67.373 E10.56939
G1 X20.61 Y66.672 E10.59819
G1 X19.803 Y65.216 E10.65356
G1 X19.35 Y64.356 E10.68589
G1 X18.982 Y63.411 E10.71962
G1 X18.426 Y61.892 E10.77342
G1 X18.208 Y60.961 E10.80522
G1 X17.846 Y59.243 E10.86361
G1 X17.711 Y57.534 E10.92063
G1 X17.653 Y56.322 E10.96099
G1 X17.654 Y42.305 E11.4272
G1 X17.665 Y41.612 E11.45025
G1 X17.71 Y40.631 E11.48291
G1 X17.832 Y38.789 E11.54431
G1 X18.022 Y37.642 E11.58298
G1 X18.365 Y35.818 E11.64471
G1 X18.714 Y34.627 E11.68599
G1 X19.271 Y32.88 E11.74698
G1 X19.71 Y31.859 E11.78394
G1 X20.512 Y30.101 E11.84821
G1 X21.037 Y29.196 E11.88301
G1 X22.062 Y27.516 E11.94846
G1 X22.813 Y26.521 E11.98993
G1 X23.943 Y25.097 E12.05039
G1 X24.732 Y24.28 E12.08817
M204 S2000
M205 X10 Y10
G1 F2400 E6.08817
G0 F3000 X26.532 Y27.288
M204 S1000
M205 X8 Y8
G1 F2400 E12.08817
G1 X28.39 Y25.429 E12.17558
G1 X30.466 Y23.802 E12.26331
G1 X32.724 Y22.44 E12.35102
G1 X35.116 Y21.364 E12.43825
G1 X37.637 Y20.575 E12.52611
G1 X40.225 Y20.102 E12.61362
G1 X42.852 Y19.945 E12.70115
G1 X45.479 Y20.102 E12.78868
G1 X48.067 Y20.575 E12.87618
G1 X50.588 Y21.364 E12.96404
G1 X52.98 Y22.44 E13.05128
G1 X55.238 Y23.802 E13.13898
G1 X57.314 Y25.429 E13.22671
G1 X59.172 Y27.288 E13.31413
G1 X60.792 Y29.353 E13.40142
G1 X62.157 Y31.617 E13.48935
G1 X63.233 Y34.009 E13.57659
G1 X64.022 Y36.53 E13.66445
G1 X64.495 Y39.118 E13.75195
G1 X64.652 Y41.716 E13.83852
G1 X64.652 Y56.619 E14.33419
G1 X64.496 Y58.762 E14.40566
G1 X64.033 Y60.891 E14.47812
G1 X63.271 Y62.937 E14.55074
G1 X62.226 Y64.853 E14.62333
G1 X60.916 Y66.605 E14.69609
G1 X59.374 Y68.146 E14.7686
G1 X57.623 Y69.456 E14.84133
G1 X55.706 Y70.501 E14.91395
G1 X53.661 Y71.263 E14.98653
G1 X51.532 Y71.726 E15.059
G1 X49.388 Y71.882 E15.1305
G1 X36.316 Y71.882 E15.56527
G1 X34.172 Y71.726 E15.63677
G1 X32.043 Y71.263 E15.70924
G1 X29.997 Y70.501 E15.78185
G1 X28.081 Y69.456 E15.85444
G1 X26.325 Y68.143 E15.92737
G1 X24.791 Y66.609 E15.99952
G1 X23.478 Y64.853 E16.07245
G1 X22.433 Y62.937 E16.14504
G1 X21.671 Y60.891 E16.21765
G1 X21.208 Y58.762 E16.29012
G1 X21.052 Y56.619 E16.36159
G1 X21.054 Y41.659 E16.85916
G1 X21.209 Y39.118 E16.94383
G1 X21.682 Y36.53 E17.03133
G1 X22.471 Y34.009 E17.11919
G1 X23.547 Y31.617 E17.20643
G1 X24.912 Y29.353 E17.29436
G1 X26.532 Y27.288 E17.38165
M204 S2000
M205 X10 Y10
G0 F3000 X26.829 Y27.561
M204 S1000
M205 X8 Y8
G1 F2400 X25.243 Y29.586 E17.4672
G1 X25.229 Y29.605 E17.46799
G1 X23.909 Y31.787 E17.55281
G1 X23.898 Y31.809 E17.55363
G1 X22.846 Y34.148 E17.63893
G1 X22.837 Y34.17 E17.63972
G1 X22.077 Y36.608 E17.72465
G1 X22.071 Y36.632 E17.72548
G1 X21.609 Y39.158 E17.81089
G1 X21.606 Y39.182 E17.81169
G1 X21.452 Y41.714 E17.89606
G1 X21.452 Y56.579 E18.39047
G1 X21.453 Y56.593 E18.39094
G1 X21.602 Y58.688 E18.4608
G1 X21.606 Y58.717 E18.46177
G1 X22.053 Y60.772 E18.53172
G1 X22.061 Y60.799 E18.53265
G1 X22.791 Y62.755 E18.60209
G1 X22.803 Y62.781 E18.60305
G1 X23.812 Y64.627 E18.67302
G1 X23.827 Y64.651 E18.67396
G1 X25.083 Y66.33 E18.7437
G1 X25.102 Y66.351 E18.74464
G1 X26.583 Y67.832 E18.8143
G1 X26.604 Y67.851 E18.81524
G1 X28.283 Y69.107 E18.88498
G1 X28.307 Y69.122 E18.88593
G1 X30.153 Y70.131 E18.9559
G1 X30.179 Y70.143 E18.95685
G1 X32.135 Y70.873 E19.02629
G1 X32.162 Y70.881 E19.02723
G1 X34.217 Y71.328 E19.09717
G1 X34.246 Y71.332 E19.09815
G1 X36.334 Y71.481 E19.16777
G1 X36.348 Y71.482 E19.16824
G1 X49.356 Y71.482 E19.60089
G1 X49.37 Y71.481 E19.60135
G1 X51.458 Y71.332 E19.67098
G1 X51.487 Y71.328 E19.67195
G1 X53.542 Y70.881 E19.7419
G1 X53.569 Y70.873 E19.74283
G1 X55.524 Y70.143 E19.81224
G1 X55.55 Y70.132 E19.81318
G1 X57.397 Y69.123 E19.88318
G1 X57.421 Y69.107 E19.88414
G1 X59.099 Y67.851 E19.95386
G1 X59.12 Y67.832 E19.9548
G1 X60.602 Y66.351 E20.02448
G1 X60.621 Y66.33 E20.02542
G1 X61.877 Y64.651 E20.09516
G1 X61.892 Y64.627 E20.09611
G1 X62.901 Y62.781 E20.16608
G1 X62.913 Y62.755 E20.16703
G1 X63.643 Y60.799 E20.23647
G1 X63.651 Y60.772 E20.23741
G1 X64.098 Y58.717 E20.30735
G1 X64.102 Y58.688 E20.30833
G1 X64.251 Y56.593 E20.37818
G1 X64.252 Y56.579 E20.37865
G1 X64.252 Y41.714 E20.87306
G1 X64.098 Y39.182 E20.95743
G1 X64.095 Y39.158 E20.95824
G1 X63.633 Y36.632 E21.04365
G1 X63.627 Y36.608 E21.04447
G1 X62.867 Y34.17 E21.1294
G1 X62.858 Y34.148 E21.1302
G1 X61.806 Y31.809 E21.2155
G1 X61.795 Y31.787 E21.21632
G1 X60.475 Y29.605 E21.30114
G1 X60.461 Y29.586 E21.30192
G1 X58.875 Y27.561 E21.38747
G1 X58.859 Y27.543 E21.38827
G1 X57.056 Y25.739 E21.4731
G1 X57.038 Y25.723 E21.4739
G1 X55.011 Y24.136 E21.55953
G1 X54.992 Y24.122 E21.56031
G1 X52.81 Y22.802 E21.64513
G1 X52.788 Y22.791 E21.64595
G1 X50.449 Y21.739 E21.73125
G1 X50.427 Y21.73 E21.73204
G1 X47.989 Y20.97 E21.81698
G1 X47.965 Y20.964 E21.8178
G1 X45.439 Y20.502 E21.90321
G1 X45.415 Y20.499 E21.90402
G1 X42.864 Y20.344 E21.98902
G1 X42.84 Y20.344 E21.98982
G1 X40.289 Y20.499 E22.07482
G1 X40.265 Y20.502 E22.07562
G1 X37.739 Y20.964 E22.16103
G1 X37.715 Y20.97 E22.16186
G1 X35.277 Y21.73 E22.24679
G1 X35.255 Y21.739 E22.24758
G1 X32.916 Y22.791 E22.33289
G1 X32.894 Y22.802 E22.3337
G1 X30.712 Y24.122 E22.41852
G1 X30.693 Y24.136 E22.41931
G1 X28.666 Y25.723 E22.50493
G1 X28.648 Y25.739 E22.50573
G1 X26.845 Y27.543 E22.59056
G1 X26.829 Y27.561 E22.59137
M204 S2000
M205 X10 Y10
G1 F2400 E16.59137
G0 F3000 X31.425 Y30.767
M204 S1000
M205 X8 Y8
G1 F2400 E22.59137
G1 X33.126 Y29.233 E22.66755
G1 X34.894 Y28.041 E22.73847
G1 X36.951 Y27.038 E22.81459
G1 X38.985 Y26.378 E22.88571
G1 X41.226 Y25.982 E22.9614
G1 X43.376 Y25.907 E23.03295
G1 X45.64 Y26.147 E23.10867
G1 X47.786 Y26.684 E23.18225
G1 X49.759 Y27.483 E23.25305
G1 X51.69 Y28.591 E23.3271
G1 X53.428 Y29.944 E23.40036
G1 X54.969 Y31.533 E23.47398
G1 X56.311 Y33.378 E23.54986
G1 X57.314 Y35.269 E23.62105
G1 X58.074 Y37.342 E23.69449
G1 X58.55 Y39.578 E23.77052
G1 X58.699 Y41.71 E23.84161
G1 X58.55 Y43.919 E23.91525
G1 X58.093 Y46.082 E23.98878
G1 X57.343 Y48.159 E24.06222
G1 X56.309 Y50.113 E24.13575
G1 X54.971 Y51.953 E24.21142
G1 X53.475 Y53.504 E24.28309
G1 X51.748 Y54.859 E24.3561
G1 X49.821 Y55.978 E24.43022
G1 X47.783 Y56.807 E24.5034
G1 X45.64 Y57.343 E24.57687
G1 X43.376 Y57.583 E24.65259
G1 X41.226 Y57.508 E24.72414
G1 X38.985 Y57.112 E24.79983
G1 X36.951 Y56.452 E24.87096
G1 X34.894 Y55.449 E24.94707
G1 X33.126 Y54.257 E25.01799
G1 X31.427 Y52.725 E25.09408
G1 X30.047 Y51.084 E25.1654
G1 X28.879 Y49.221 E25.23853
G1 X27.969 Y47.188 E25.31261
G1 X27.36 Y45.082 E25.38553
G1 X27.047 Y42.88 E25.45951
G1 X27.042 Y40.675 E25.53284
G1 X27.36 Y38.41 E25.60892
G1 X27.946 Y36.361 E25.6798
G1 X28.845 Y34.335 E25.75352
G1 X30.015 Y32.454 E25.8272
G1 X31.425 Y30.767 E25.90033
M204 S2000
M205 X10 Y10
G0 F3000 X31.727 Y31.031
M204 S1000
M205 X8 Y8
G1 F2400 X30.367 Y32.65 E25.97065
G1 X30.35 Y32.673 E25.9716
G1 X29.216 Y34.488 E26.04278
G1 X29.203 Y34.513 E26.04372
G1 X28.332 Y36.467 E26.11488
G1 X28.323 Y36.493 E26.11579
G1 X27.745 Y38.512 E26.18564
G1 X27.739 Y38.539 E26.18656
G1 X27.444 Y40.653 E26.25755
G1 X27.442 Y40.681 E26.25849
G1 X27.442 Y42.811 E26.32933
G1 X27.444 Y42.839 E26.33027
G1 X27.739 Y44.956 E26.40136
G1 X27.745 Y44.983 E26.40228
G1 X28.321 Y46.993 E26.47182
G1 X28.33 Y47.02 E26.47277
G1 X29.207 Y48.985 E26.54434
G1 X29.22 Y49.009 E26.54525
G1 X30.349 Y50.817 E26.61614
G1 X30.366 Y50.84 E26.61709
G1 X31.727 Y52.459 E26.68744
G1 X31.746 Y52.479 E26.68836
G1 X33.329 Y53.905 E26.75922
G1 X33.351 Y53.922 E26.76015
G1 X35.112 Y55.112 E26.83084
G1 X35.136 Y55.126 E26.83176
G1 X37.072 Y56.068 E26.90337
G1 X37.098 Y56.078 E26.9043
G1 X39.091 Y56.725 E26.97399
G1 X39.118 Y56.732 E26.97492
G1 X41.228 Y57.103 E27.04617
G1 X41.256 Y57.106 E27.04711
G1 X43.379 Y57.183 E27.11777
G1 X43.407 Y57.182 E27.1187
G1 X45.522 Y56.959 E27.18943
G1 X45.549 Y56.954 E27.19035
G1 X47.62 Y56.439 E27.26133
G1 X47.647 Y56.43 E27.26227
G1 X49.607 Y55.639 E27.33257
G1 X49.632 Y55.627 E27.33349
G1 X51.465 Y54.565 E27.40395
G1 X51.488 Y54.55 E27.40487
G1 X53.18 Y53.228 E27.47628
G1 X53.201 Y53.209 E27.47722
G1 X54.671 Y51.687 E27.5476
G1 X54.689 Y51.666 E27.54852
G1 X55.947 Y49.936 E27.61967
G1 X55.962 Y49.912 E27.62061
G1 X56.966 Y48.02 E27.69185
G1 X56.977 Y47.994 E27.69279
G1 X57.692 Y46.025 E27.76246
G1 X57.7 Y45.999 E27.76336
G1 X58.144 Y43.908 E27.83446
G1 X58.148 Y43.88 E27.8354
G1 X58.297 Y41.729 E27.90712
G1 X58.296 Y41.701 E27.90805
G1 X58.147 Y39.609 E27.9778
G1 X58.144 Y39.581 E27.97874
G1 X57.699 Y37.486 E28.04998
G1 X57.691 Y37.46 E28.05088
G1 X56.974 Y35.49 E28.12061
G1 X56.963 Y35.464 E28.12155
G1 X55.96 Y33.574 E28.19271
G1 X55.945 Y33.55 E28.19365
G1 X54.689 Y31.824 E28.26465
G1 X54.671 Y31.803 E28.26557
G1 X53.203 Y30.284 E28.33583
G1 X53.182 Y30.265 E28.33677
G1 X51.484 Y28.938 E28.40845
G1 X51.461 Y28.923 E28.40936
G1 X49.632 Y27.863 E28.47967
G1 X49.607 Y27.851 E28.4806
G1 X47.646 Y27.06 E28.55093
G1 X47.619 Y27.051 E28.55187
G1 X45.549 Y26.536 E28.62282
G1 X45.522 Y26.531 E28.62373
G1 X43.407 Y26.308 E28.69447
G1 X43.379 Y26.307 E28.6954
G1 X41.256 Y26.384 E28.76606
G1 X41.228 Y26.387 E28.76699
G1 X39.118 Y26.758 E28.83825
G1 X39.091 Y26.765 E28.83918
G1 X37.098 Y27.412 E28.90887
G1 X37.072 Y27.422 E28.9098
G1 X35.14 Y28.362 E28.98126
G1 X35.116 Y28.376 E28.98218
G1 X33.349 Y29.569 E29.05309
G1 X33.327 Y29.586 E29.05402
G1 X31.746 Y31.011 E29.12481
G1 X31.727 Y31.031 E29.12573
M204 S2000
M205 X10 Y10
G1 F2400 E23.12573
;MESH:V3_display case prototype.stl
G0 F3000 X41.2 Y57.743
G0 X41.094 Y58.805
G0 X43.369 Y59.383
G0 X43.393 Y58.684
M204 S1000
M205 X8 Y8
;TYPE:WALL-OUTER
G1 F2400 E29.12573
G1 F1500 X41.036 Y58.601 E29.20417
G1 X38.673 Y58.171 E29.28405
G1 X36.533 Y57.472 E29.35893
G1 X34.392 Y56.431 E29.43811
G1 X32.452 Y55.128 E29.51584
G1 X30.626 Y53.485 E29.59754
G1 X29.154 Y51.727 E29.6738
G1 X27.861 Y49.654 E29.75506
G1 X26.919 Y47.535 E29.83219
G1 X26.261 Y45.216 E29.91237
G1 X25.941 Y42.908 E29.98986
G1 X25.944 Y40.524 E30.06916
G1 X26.287 Y38.14 E30.14926
G1 X26.937 Y35.902 E30.22678
G1 X27.874 Y33.805 E30.30317
G1 X29.166 Y31.743 E30.3841
G1 X30.638 Y29.99 E30.46024
G1 X32.444 Y28.362 E30.54111
G1 X34.344 Y27.084 E30.61727
G1 X36.485 Y26.037 E30.69654
